luts/cinecolor_fuji_f_log.cube
# Creator: CINECOLOR
# Source & Info: https://cinecolor.io/collections/camera-luts/products/fuji-f-log
TITLE "Generated by Resolve"
LUT_3D_SIZE 9
0.016083 0.0161135 0.0149996
0.126848 0.0149386 0.0171969
0.355001 0.00985733 0.0259098
0.706203 0.00646983 0.0743572
0.985473 0.0162051 0.137682
1 0.019913 0.149203
1 0.019913 0.149203
1 0.019913 0.149203
1 0.019913 0.149203
0.00628672 0.0378424 0.00669871
0.0644999 0.0285191 0.0123903
0.258045 0.0123751 0.0196078
0.526314 0.00729381 0.0446479
0.834195 0.00840772 0.100221
1 0.019913 0.149203
1 0.019913 0.149203
1 0.019913 0.149203
1 0.019913 0.149203
0 0.162921 0
0 0.177447 0
0.18706 0.149462 0
0.424002 0.104417 0.00323491
0.724163 0.00604257 0.07776
0.967865 0.0155795 0.13283
1 0.019913 0.149203
1 0.019913 0.149203
1 0.019913 0.149203
0 0.297551 0
0 0.340612 0
0.0629587 0.311727 0
0.351476 0.284688 0
0.654108 0.250706 0
0.916213 0.177127 0.0695354
1 0.0199435 0.149233
1 0.0199283 0.149218
1 0.0199283 0.149218
0 0.512261 0
0 0.583322 0
0 0.556924 0
0.230304 0.530144 0
0.590509 0.502968 0
0.858961 0.464469 0
1 0.350515 0.0182193
1 0.168048 0.105455
1 0.111604 0.123781
0 0.754452 0
0 0.818967 0
0 0.802136 0
0 0.788357 0
0.500267 0.755032 0
0.778683 0.732235 0
0.949569 0.680201 0
0.984375 0.522515 0
1 0.421378 0
0 0.925093 0
0 0.970886 0
0 0.961776 0
0 0.954116 0
0.381659 0.922591 0
0.702739 0.893355 0
0.894331 0.867872 0
0.924041 0.787366 0
0.944457 0.701488 0
0 0.993606 0
0 0.993606 0
0 0.993606 0
0 0.995422 0
0.112306 0.991012 0
0.562142 0.96553 0
0.799802 0.953048 0
0.881056 0.937224 0
0.902724 0.873213 0
0 0.993606 0
0 0.993606 0
0 0.993606 0
0 0.993606 0
0 0.99733 0
0.317815 0.978561 0
0.632258 0.961318 0
0.85832 0.951202 0
0.8766 0.950622 0
0.0150759 0.0160372 0.0712596
0.117571 0.015198 0.0163882
0.343252 0.0103456 0.0243687
0.671809 0.0062562 0.0681468
0.957626 0.0146487 0.130358
1 0.019913 0.149203
1 0.019913 0.149203
1 0.019913 0.149203
1 0.019913 0.149203
0.007187 0.0351873 0.0786145
0.0381476 0.0380865 0.0399939
0.245518 0.011841 0.0189822
0.503594 0.0077821 0.0409705
0.81265 0.00746166 0.095613
1 0.019913 0.149203
1 0.019913 0.149203
1 0.019913 0.149203
1 0.019913 0.149203
0 0.165713 0.0499123
0 0.18407 0.0256504
0.173312 0.162325 0
0.411566 0.121431 0
0.711162 0.00640879 0.0755627
0.958083 0.0146639 0.130373
1 0.019913 0.149203
1 0.019913 0.149203
1 0.019913 0.149203
0 0.307683 0.0214847
0 0.354604 0
0.0262913 0.327993 0
0.338659 0.30074 0
0.647913 0.26627 0
0.910857 0.198825 0.0594644
1 0.0199588 0.149248
1 0.0199283 0.149218
1 0.0199283 0.149218
0 0.530144 0
0 0.599054 0
0 0.575708 0
0.198489 0.551614 0
0.581292 0.523659 0
0.853986 0.483787 0
1 0.37023 0.00337224
1 0.188785 0.098085
1 0.126772 0.119066
0 0.76556 0
0 0.826215 0
0 0.81091 0
0 0.799344 0
0.485908 0.765667 0
0.772793 0.741436 0
0.946624 0.692363 0
0.98172 0.536507 0
1 0.43595 0
0 0.928679 0
0 0.972717 0
0 0.963409 0
0 0.957504 0
0.356649 0.927291 0
0.692988 0.89836 0
0.890257 0.873655 0
0.922118 0.795132 0
0.941649 0.712627 0
0 0.990875 0
0 0.992493 0
0 0.993225 0
0 0.994995 0
0.0419165 0.994904 0
0.546227 0.966171 0
0.797055 0.953094 0
0.879179 0.942519 0
0.900298 0.882765 0
0 0.991684 0
0 0.993606 0
0 0.993606 0
0 0.993606 0
0 0.996796 0
0.321218 0.976699 0
0.613138 0.962493 0
0.843671 0.951522 0
0.8766 0.950622 0
0.0137789 0.0174716 0.230594
0.0938277 0.0113069 0.20206
0.326848 0.00822461 0.135439
0.643732 0.00579843 0.0632944
0.933684 0.0131685 0.124422
1 0.019913 0.149203
1 0.019913 0.149203
1 0.019913 0.149203
1 0.019913 0.149203
0.0124819 0.0211948 0.244678
0.0108644 0.0258793 0.20354
0.234165 0.00892653 0.175418
0.485863 0.00759899 0.038468
0.796292 0.00726329 0.0916915
1 0.019028 0.148425
1 0.019913 0.149203
1 0.019913 0.149203
1 0.019913 0.149203
0 0.158831 0.217517
0 0.181048 0.188617
0.160983 0.160754 0.168627
0.403662 0.12224 0.130053
0.701518 0.00650034 0.073106
0.953964 0.0145266 0.12987
1 0.019913 0.149203
1 0.019913 0.149203
1 0.019913 0.149203
0 0.308156 0.211994
0 0.35671 0.180865
0 0.331777 0.165179
0.33463 0.304341 0.137972
0.643793 0.273869 0.00131228
0.907835 0.207507 0.0547646
1 0.0199588 0.149248
1 0.0199283 0.149218
1 0.0199283 0.149218
0 0.535668 0.192523
0 0.604318 0.151934
0 0.582147 0.124483
0.187411 0.558312 0.0988022
0.579171 0.532876 0.0175479
0.848203 0.497612 0
1 0.384588 0
1 0.204791 0.0923171
1 0.140703 0.115007
0 0.763989 0.180041
0 0.823651 0.117037
0 0.809857 0.0721752
0 0.798871 0.0512856
0.485939 0.768704 0
0.76437 0.749477 0
0.944183 0.702464 0
0.979049 0.549294 0
0.99939 0.449638 0
0 0.921477 0.173693
0 0.965743 0.0480049
0 0.959091 0
0 0.95349 0
0.352667 0.927382 0
0.678508 0.902327 0
0.882994 0.876997 0
0.919997 0.803449 0
0.939513 0.722942 0
0 0.983703 0.0791333
0 0.988159 0
0 0.988327 0
0 0.989532 0
0.000869764 0.992813 0
0.545129 0.963836 0
0.784787 0.95349 0
0.87808 0.945205 0
0.89839 0.889021 0
0 0.988159 0
0 0.989532 0
0 0.989761 0
0 0.990372 0
0 0.99263 0
0.330968 0.973602 0
0.608164 0.961868 0
0.839323 0.951843 0
0.8766 0.950622 0
0.0122072 0.0241703 0.437415
0.0132143 0.0217899 0.377707
0.304753 0.00445563 0.328389
0.624445 0.00221256 0.244404
0.912993 0.0124514 0.119081
1 0.019913 0.149203
1 0.019913 0.149203
1 0.019913 0.149203
1 0.019913 0.149203
0.0129549 0.0248722 0.448371
0.0130617 0.0225376 0.385657
0.213642 0.00544747 0.340963
0.476112 0.00250248 0.288792
0.782681 0.00610361 0.103517
1 0.0188296 0.145617
1 0.019913 0.149203
1 0.019913 0.149203
1 0.019913 0.149203
0 0.149416 0.419989
0 0.175708 0.375021
0.135729 0.156756 0.336034
0.394675 0.121996 0.306935
0.699687 0.0155947 0.283085
0.950698 0.0143893 0.128573
1 0.019913 0.149203
1 0.019913 0.149203
1 0.019913 0.149203
0 0.308492 0.424292
0 0.359014 0.387457
0 0.336461 0.348882
0.312734 0.312505 0.322484
0.647486 0.274937 0.295583
0.907744 0.213687 0.16199
1 0.0199588 0.149248
1 0.0199283 0.149218
1 0.0199283 0.149218
0 0.541955 0.437018
0 0.609674 0.400626
0 0.589105 0.361837
0.137209 0.566934 0.34435
0.572869 0.537865 0.3028
0.847105 0.50135 0.212543
1 0.401526 0
1 0.217136 0.0875257
1 0.151812 0.111299
0 0.76054 0.458854
0 0.816129 0.418692
0 0.803571 0.390188
0 0.7944 0.370047
0.471061 0.7635 0.328038
0.764858 0.743175 0.238529
0.941695 0.71075 0
0.976379 0.561028 0
0.996918 0.462318 0
0 0.910933 0.475074
0 0.95111 0.41973
0 0.944503 0.39646
0 0.940002 0.375631
0.317723 0.915785 0.335302
0.67921 0.888808 0.235264
0.88043 0.877073 0
0.918303 0.809522 0
0.937011 0.732723 0
0 0.971908 0.422019
0 0.975769 0.316182
0 0.976699 0.292607
0 0.977813 0.257481
0 0.983291 0.281254
0.542535 0.94966 0.255741
0.781186 0.952316 0
0.877729 0.94641 0
0.896468 0.894942 0
0 0.976867 0.285222
0 0.981933 0.137774
0 0.983093 0.100298
0 0.984512 0.0510414
0 0.987274 0.0130312
0.273457 0.96791 0.168246
0.608118 0.950698 0.163119
0.82594 0.952178 0
0.8766 0.950622 0
0.00660716 0.049958 0.726329
0.00802625 0.042359 0.66154
0.268727 0.00527962 0.574151
0.60592 0 0.485924
0.901335 0.00605783 0.343572
1 0.019913 0.149203
1 0.019913 0.149203
1 0.019913 0.149203
1 0.019913 0.149203
0.0071107 0.048188 0.712261
0.00939956 0.0395819 0.635431
0.167178 0.0183871 0.560891
0.460349 0 0.505104
0.780621 0 0.428702
1 0.0176394 0.142748
1 0.019913 0.149203
1 0.019913 0.149203
1 0.019913 0.149203
0 0.135409 0.678721
0 0.166537 0.621683
0.0238346 0.152331 0.561456
0.376455 0.118273 0.526284
0.702373 0.0160678 0.505684
0.955673 0.0078584 0.401785
1 0.019913 0.149203
1 0.019913 0.149203
1 0.019913 0.149203
0 0.307851 0.665217
0 0.361776 0.623423
0 0.339544 0.575525
0.295552 0.312749 0.557549
0.645762 0.278355 0.53547
0.913558 0.21236 0.479774
1 0.0169985 0.257008
1 0.0199283 0.149218
1 0.0199283 0.149218
0 0.54638 0.665522
0 0.611261 0.631739
0 0.59266 0.598871
0 0.5776 0.58439
0.546242 0.546044 0.554894
0.844556 0.502419 0.515068
1 0.415442 0.363882
1 0.223056 0.085069
1 0.158663 0.108614
0 0.754681 0.673243
0 0.807797 0.642222
0 0.797391 0.615839
0 0.788846 0.599268
0.434256 0.759884 0.581796
0.757717 0.736187 0.536858
0.949615 0.699458 0.402304
0.97258 0.582467 0.0545968
0.994736 0.473045 0
0 0.898833 0.681453
0 0.937545 0.637858
0 0.931991 0.619944
0 0.927703 0.602777
0.232761 0.909346 0.589151
0.663615 0.876448 0.538109
0.872267 0.856916 0.425772
0.923476 0.800809 0.201297
0.934478 0.742382 0
0 0.963516 0.641505
0 0.966812 0.553384
0 0.967239 0.541848
0 0.967971 0.522301
0 0.972778 0.524956
0.514565 0.940597 0.5028
0.767651 0.937789 0.409598
0.886351 0.937072 0.0878462
0.895903 0.896284 0
0 0.968063 0.517937
0 0.971878 0.423209
0 0.972549 0.400504
0 0.973785 0.368795
0 0.975265 0.325841
0.16524 0.966323 0.373861
0.613718 0.939086 0.436377
0.820432 0.941527 0.242725
0.876799 0.950607 0
0 0.101289 0.957565
0 0.0830243 0.900008
0.153094 0.0535286 0.815869
0.579263 0 0.764508
0.895842 0 0.668925
1 0.0140536 0.368124
1 0.019913 0.149203
1 0.019913 0.149203
1 0.019913 0.149203
0 0.090547 0.925475
0.000747692 0.0736858 0.865675
0.00476081 0.0582132 0.786099
0.427878 0 0.75613
0.778332 0 0.702739
1 0.00703441 0.57731
1 0.019913 0.149203
1 0.019913 0.149203
1 0.019913 0.149203
0 0.109712 0.898604
0 0.152087 0.846647
0 0.139437 0.786679
0.333806 0.111208 0.758709
0.700206 0.00317388 0.76083
0.961456 0.00192264 0.709133
1 0.0128939 0.402777
1 0.019913 0.149203
1 0.019913 0.149203
0 0.301625 0.85951
0 0.358724 0.816617
0 0.33959 0.781933
0.213672 0.318166 0.771511
0.629679 0.279515 0.76759
0.915572 0.209079 0.75552
1 0.00830091 0.619608
1 0.0199435 0.149218
1 0.0199283 0.149218
0 0.5411 0.837278
0 0.605982 0.80853
0 0.590448 0.784894
0 0.578729 0.771405
0.518471 0.54139 0.761898
0.83621 0.503044 0.74992
0.996048 0.420859 0.682826
1 0.314061 0.439216
1 0.181827 0.100954
0 0.742733 0.825788
0 0.794842 0.798779
0 0.786404 0.780179
0 0.779919 0.761654
0.340887 0.757076 0.756008
0.732174 0.732021 0.73695
0.950729 0.689006 0.696132
0.9729 0.60444 0.551278
0.98851 0.51284 0.242176
0 0.881575 0.820035
0 0.920455 0.786816
0 0.91606 0.774441
0 0.913497 0.761425
0 0.913909 0.765255
0.624796 0.865171 0.729
0.8607 0.842603 0.688045
0.932662 0.787762 0.595254
0.938903 0.739376 0.343221
0 0.958129 0.796536
0 0.960494 0.728054
0 0.960845 0.717342
0 0.961151 0.705577
0 0.963195 0.700038
0.440299 0.937224 0.681758
0.751614 0.92874 0.65095
0.899626 0.916777 0.534859
0.906752 0.876875 0.349874
0 0.961715 0.695476
0 0.963912 0.6309
0 0.964736 0.611139
0 0.96553 0.592157
0 0.966476 0.563073
0 0.972107 0.570352
0.586175 0.93431 0.584939
0.80975 0.933165 0.554635
0.886061 0.93991 0.22977
0 0.125856 1
0 0.120302 1
0 0.111666 0.986908
0.501671 0.033463 0.95346
0.881285 0 0.9187
1 0.00585946 0.765789
1 0.0157931 0.287709
1 0.019913 0.149203
1 0.019913 0.149203
0 0.145129 1
0 0.125154 1
0 0.103014 0.963088
0.339193 0.0586709 0.929259
0.761822 0 0.917891
1 0.00280766 0.867475
1 0.00988785 0.548043
1 0.019913 0.149203
1 0.019913 0.149203
0 0.133761 1
0 0.120684 1
0 0.112154 0.963485
0.220081 0.0962844 0.932631
0.670329 0 0.951263
0.95967 0 0.933867
1 0.0059205 0.748745
1 0.0156405 0.307652
1 0.019913 0.149203
0 0.274754 1
0 0.3393 0.963684
0 0.326696 0.939101
0 0.313497 0.914733
0.569635 0.274556 0.928756
0.906691 0.201999 0.941238
1 0.00468452 0.890257
1 0.00972 0.569482
1 0.0139467 0.381704
0 0.514244 0.952636
0 0.582193 0.932311
0 0.572473 0.915419
0 0.564523 0.898985
0.402411 0.537346 0.90161
0.811994 0.496086 0.9028
0.998032 0.406058 0.890166
1 0.314534 0.705318
1 0.303563 0.540169
0 0.716594 0.914733
0 0.770809 0.907454
0 0.76524 0.89688
0 0.76141 0.883574
0 0.757122 0.887404
0.698558 0.715541 0.871733
0.936553 0.676844 0.858579
0.967544 0.617884 0.755703
0.974762 0.580484 0.646296
0 0.854383 0.898344
0 0.895293 0.891371
0 0.892164 0.881392
0 0.891737 0.87306
0 0.892149 0.868666
0.536446 0.853574 0.851408
0.829953 0.829877 0.832288
0.940398 0.784268 0.785077
0.945907 0.74316 0.694148
0 0.947967 0.890776
0 0.956298 0.856855
0 0.956542 0.849699
0 0.956725 0.842344
0 0.95697 0.832334
0.254551 0.943313 0.822416
0.708415 0.923827 0.797116
0.91429 0.902068 0.754772
0.919905 0.86096 0.697612
0 0.957214 0.827008
0 0.958648 0.783612
0 0.958968 0.769253
0 0.959487 0.756298
0 0.960159 0.73959
0 0.962325 0.727153
0.509987 0.932601 0.714565
0.798688 0.92668 0.738048
0.898497 0.92874 0.617609
0 0.129305 1
0 0.124819 1
0 0.11693 1
0.402152 0.0779278 1
0.845212 0 1
1 0.00430304 1
1 0.00709544 0.705135
1 0.0140536 0.365972
1 0.014374 0.352071
0 0.149401 1
0 0.1467 1
0 0.139193 1
0 0.130068 1
0.694713 0.0235447 1
0.993439 0.000610361 1
1 0.00445563 0.865217
1 0.0114443 0.472618
1 0.0125277 0.447303
0 0.150927 1
0 0.150927 1
0 0.150927 1
0 0.13666 1
0.565744 0.0740063 1
0.935225 0 1
1 0.00383001 0.97818
1 0.007187 0.683619
1 0.00982681 0.555917
0 0.183276 1
0 0.262715 1
0 0.273289 1
0 0.278706 1
0.401526 0.253819 1
0.86891 0.180026 1
1 0.00390631 1
1 0.00454719 0.851942
1 0.00714122 0.693645
0 0.409659 0.975814
0 0.500496 0.955642
0 0.508171 0.954009
0 0.515343 0.952316
0 0.523766 0.976501
0.749783 0.472694 0.986084
1 0.377325 1
1 0.271672 0.899382
1 0.265095 0.775036
0 0.62916 0.928069
0 0.705806 0.915984
0 0.70959 0.915541
0 0.713741 0.914473
0 0.717983 0.914031
0.579049 0.692805 0.941863
0.903334 0.652506 0.960662
0.972107 0.587488 0.888823
0.975784 0.564599 0.795331
0 0.790661 0.903944
0 0.846372 0.898878
0 0.847913 0.898909
0 0.849897 0.898665
0 0.852399 0.898299
0.311162 0.836149 0.912749
0.786175 0.801816 0.929397
0.942168 0.765499 0.891661
0.945449 0.746136 0.817029
0 0.904173 0.89424
0 0.943053 0.890852
0 0.944274 0.890806
0 0.945495 0.890639
0 0.947387 0.890471
0 0.950896 0.899641
0.614267 0.906371 0.8981
0.884962 0.884932 0.885832
0.929061 0.854749 0.844739
0 0.954971 0.891447
0 0.955093 0.892042
0 0.955383 0.886748
0 0.955627 0.878981
0 0.955825 0.869627
0 0.956298 0.856641
0.326528 0.93817 0.841123
0.764035 0.923476 0.83032
0.911299 0.925734 0.807935
0 0.13312 1
0 0.128954 1
0 0.121004 1
0.34519 0.090486 1
0.815961 0 1
1 0.00384527 1
1 0.00520333 0.825803
1 0.0099031 0.544198
1 0.00978103 0.561639
0 0.150927 1
0 0.150927 1
0 0.143282 1
0 0.13666 1
0.632807 0.0668498 1
0.970932 0 1
1 0.00395209 0.986816
1 0.00708019 0.711498
1 0.00709544 0.704753
0 0.150927 1
0 0.150927 1
0 0.150927 1
0 0.150927 1
0.41976 0.125048 1
0.892073 0 1
1 0.00306706 1
1 0.00479133 0.900771
1 0.00520333 0.823072
0 0.177401 1
0 0.230488 1
0 0.225605 1
0 0.220722 1
0.0970169 0.22031 1
0.777279 0.149722 1
1 0.00216678 1
1 0.00437934 1
1 0.00410468 0.914641
0 0.347158 0.989807
0 0.425681 0.972503
0 0.422339 0.972992
0 0.420172 0.973434
0 0.420172 0.973434
0.582284 0.422614 0.99585
0.959823 0.345113 1
1 0.205478 1
1 0.207599 0.946303
0 0.545495 0.945602
0 0.622782 0.928832
0 0.621958 0.928954
0 0.62237 0.928786
0 0.626642 0.928481
0.337224 0.626932 0.950942
0.817349 0.618555 0.967147
0.980591 0.533196 0.980438
0.982269 0.521614 0.917205
0 0.713741 0.914473
0 0.776074 0.905592
0 0.778347 0.905257
0 0.782238 0.905058
0 0.786145 0.904616
0 0.790722 0.913695
0.69752 0.761624 0.931334
0.942306 0.74049 0.944869
0.948226 0.721569 0.902144
0 0.881971 0.896147
0 0.917983 0.892912
0 0.911559 0.893645
0 0.905058 0.894331
0 0.902861 0.89424
0 0.90634 0.894118
0.469001 0.875471 0.903212
0.841718 0.854871 0.924437
0.933104 0.841031 0.909041
0 0.955108 0.891615
0 0.955108 0.891615
0 0.955108 0.891615
0 0.955108 0.891615
0 0.955108 0.891615
0 0.955108 0.891615
0 0.959854 0.907683
0.69662 0.921279 0.898466
0.924086 0.924086 0.924086
