luts/cinecolor_fuji_f_log.cube
# Creator: CINECOLOR
# Source & Info: https://cinecolor.io/collections/camera-luts/products/fuji-f-log
TITLE "Generated by Resolve"
LUT_3D_SIZE 33
0.016083 0.0161135 0.0149996
0.0151522 0.0161593 0.0139773
0.0233616 0.0168002 0.0136568
0.0757153 0.0155947 0.0157168
0.126848 0.0149386 0.0171969
0.17847 0.0132906 0.0176242
0.22884 0.0125277 0.0186465
0.288014 0.0113375 0.0204623
0.355001 0.00985733 0.0259098
0.439414 0.00807202 0.03299
0.532647 0.00717174 0.0452735
0.619867 0.00639353 0.0596628
0.706203 0.00646983 0.0743572
0.786603 0.007187 0.0899672
0.857786 0.00952163 0.10634
0.923598 0.0127871 0.121965
0.985473 0.0162051 0.137682
1 0.019913 0.149203
1 0.019913 0.149203
1 0.019913 0.149203
1 0.019913 0.149203
1 0.019913 0.149203
1 0.019913 0.149203
1 0.019913 0.149203
1 0.019913 0.149203
1 0.019913 0.149203
1 0.019913 0.149203
1 0.019913 0.149203
1 0.019913 0.149203
1 0.019913 0.149203
1 0.019913 0.149203
1 0.019913 0.149203
1 0.019913 0.149203
0.0151522 0.0161593 0.0139773
0.0151522 0.0161593 0.0139773
0.0133059 0.0162203 0.0130007
0.0580453 0.0162814 0.0153353
0.111788 0.0153353 0.0165255
0.163638 0.0137179 0.016968
0.213489 0.0129397 0.0180209
0.26981 0.0118257 0.0200809
0.333501 0.0107271 0.0238346
0.404669 0.00920119 0.028748
0.48481 0.00762951 0.0384985
0.569986 0.00689708 0.0506905
0.654551 0.00648508 0.0649271
0.737896 0.00596628 0.0801404
0.813916 0.00746166 0.0961471
0.880919 0.0107729 0.111528
0.944076 0.0141299 0.127367
1 0.0175021 0.141878
1 0.019913 0.149203
1 0.019913 0.149203
1 0.019913 0.149203
1 0.019913 0.149203
1 0.019913 0.149203
1 0.019913 0.149203
1 0.019913 0.149203
1 0.019913 0.149203
1 0.019913 0.149203
1 0.019913 0.149203
1 0.019913 0.149203
1 0.019913 0.149203
1 0.019913 0.149203
1 0.019913 0.149203
1 0.019913 0.149203
0.0132143 0.0171054 0.0129244
0.0133059 0.0162203 0.0130007
0.0132143 0.0171054 0.0129244
0.0408942 0.0163729 0.0153353
0.0970932 0.0150454 0.016144
0.148623 0.0142519 0.0175021
0.197681 0.0133822 0.0178378
0.249042 0.0117189 0.0188754
0.304417 0.0108797 0.0229343
0.367102 0.00959792 0.0264134
0.442649 0.00888075 0.0328374
0.523888 0.00733959 0.0438697
0.607584 0.00662242 0.056199
0.690578 0.00576791 0.0714733
0.770321 0.00650034 0.0865187
0.840543 0.00854505 0.102358
0.90454 0.0113985 0.117937
0.965988 0.0154879 0.132357
1 0.0187381 0.146273
1 0.019913 0.149203
1 0.019913 0.149203
1 0.019913 0.149203
1 0.019913 0.149203
1 0.019913 0.149203
1 0.019913 0.149203
1 0.019913 0.149203
1 0.019913 0.149203
1 0.019913 0.149203
1 0.019913 0.149203
1 0.019913 0.149203
1 0.019913 0.149203
1 0.019913 0.149203
1 0.019913 0.149203
0.0132143 0.0171054 0.0129244
0.0128939 0.0205539 0.0115511
0.0132143 0.0171054 0.0129244
0.0282902 0.0167239 0.0146334
0.0813611 0.0154726 0.0155795
0.13135 0.0148013 0.0170596
0.179492 0.0133059 0.0176242
0.226307 0.0126192 0.0187228
0.279606 0.0115511 0.020676
0.33695 0.010605 0.0246433
0.405798 0.00917067 0.0287175
0.48336 0.00767529 0.0377203
0.565042 0.00701915 0.0500649
0.646418 0.00573739 0.0637369
0.727184 0.0059968 0.0783093
0.802335 0.00733959 0.0934157
0.868742 0.00985733 0.108782
0.930663 0.0130312 0.123919
0.988693 0.0172274 0.138338
1 0.019913 0.149203
1 0.019913 0.149203
1 0.019913 0.149203
1 0.019913 0.149203
1 0.019913 0.149203
1 0.019913 0.149203
1 0.019913 0.149203
1 0.019913 0.149203
1 0.019913 0.149203
1 0.019913 0.149203
1 0.019913 0.149203
1 0.019913 0.149203
1 0.019913 0.149203
1 0.019913 0.149203
0.00628672 0.0378424 0.00669871
0.0034638 0.057557 0.00164797
0.00428778 0.0483864 0.00357061
0.0101015 0.0377356 0.00764477
0.0644999 0.0285191 0.0123903
0.114885 0.0178683 0.0151675
0.162646 0.0137636 0.0169985
0.208057 0.0131228 0.0181888
0.258045 0.0123751 0.0196078
0.31191 0.0104067 0.022446
0.37409 0.00943008 0.0270237
0.446494 0.00881971 0.0335393
0.526314 0.00729381 0.0446479
0.607065 0.00665293 0.0562295
0.687495 0.00581369 0.0710002
0.76527 0.00646983 0.0853742
0.834195 0.00840772 0.100221
0.896544 0.0112917 0.115709
0.957183 0.0146334 0.130343
1 0.018677 0.143969
1 0.019913 0.149203
1 0.019913 0.149203
1 0.019913 0.149203
1 0.019913 0.149203
1 0.019913 0.149203
1 0.019913 0.149203
1 0.019913 0.149203
1 0.019913 0.149203
1 0.019913 0.149203
1 0.019913 0.149203
1 0.019913 0.149203
1 0.019913 0.149203
1 0.019913 0.149203
0.00157168 0.074403 0
3.0518e-05 0.0904555 0
0.000198367 0.0888228 0
0.00109865 0.080827 0
0.0336461 0.0726024 0.00137331
0.0952316 0.0607614 0.00485237
0.148333 0.0441138 0.00985733
0.195148 0.0266728 0.0140078
0.240757 0.0128328 0.0190433
0.292805 0.0111849 0.0211948
0.349294 0.0100557 0.0250858
0.417639 0.00883497 0.0303044
0.492515 0.00746166 0.0392462
0.572442 0.00668345 0.0513161
0.651743 0.00563058 0.064332
0.728801 0.00602731 0.0789349
0.801663 0.00733959 0.0934005
0.866178 0.00975052 0.107774
0.926085 0.0129091 0.12253
0.983276 0.016144 0.136889
1 0.019913 0.149203
1 0.019913 0.149203
1 0.019913 0.149203
1 0.019913 0.149203
1 0.019913 0.149203
1 0.019913 0.149203
1 0.019913 0.149203
1 0.019913 0.149203
1 0.019913 0.149203
1 0.019913 0.149203
1 0.019913 0.149203
1 0.019913 0.149203
1 0.019913 0.149203
0 0.103792 0
0 0.118517 0
0 0.122728 0
0 0.115953 0
0 0.108904 0
0.0651408 0.102007 0
0.125887 0.0916762 0
0.177264 0.0805676 0.00205997
0.22533 0.0653849 0.00706493
0.277684 0.0440986 0.0123751
0.33257 0.0196841 0.0204318
0.394354 0.00947585 0.0281071
0.466178 0.00808728 0.035462
0.54342 0.00668345 0.0472877
0.621973 0.00634775 0.059617
0.699077 0.00569161 0.0725567
0.773358 0.00650034 0.0871138
0.839124 0.00852979 0.101823
0.89955 0.011368 0.116594
0.957626 0.0146487 0.130358
1 0.0186465 0.143572
1 0.019913 0.149203
1 0.019913 0.149203
1 0.019913 0.149203
1 0.019913 0.149203
1 0.019913 0.149203
1 0.019913 0.149203
1 0.019913 0.149203
1 0.019913 0.149203
1 0.019913 0.149203
1 0.019913 0.149203
1 0.019913 0.149203
1 0.019913 0.149203
0 0.133135 0
0 0.14818 0
0 0.157031 0
0 0.150347 0
0 0.143755 0
0.0350347 0.136919 0
0.0991073 0.129931 0
0.157229 0.120119 0
0.206302 0.110048 0
0.258839 0.0987259 0
0.313313 0.0859541 0.00416571
0.375143 0.0665904 0.0107881
0.446448 0.0360571 0.0235142
0.51902 0.0074464 0.0431373
0.59646 0.00619516 0.0554208
0.672953 0.00624094 0.0681315
0.74667 0.00666819 0.0814374
0.814801 0.00746166 0.0961471
0.875792 0.00991836 0.110246
0.934127 0.0131838 0.124437
0.988693 0.0172274 0.138338
1 0.019913 0.149203
1 0.019913 0.149203
1 0.019913 0.149203
1 0.019913 0.149203
1 0.019913 0.149203
1 0.019913 0.149203
1 0.019913 0.149203
1 0.019913 0.149203
1 0.019913 0.149203
1 0.019913 0.149203
1 0.019913 0.149203
1 0.019913 0.149203
0 0.162921 0
0 0.177447 0
0 0.190402 0
0 0.183627 0
0 0.177447 0
0 0.173037 0
0.0733654 0.164782 0
0.133028 0.158373 0
0.18706 0.149462 0
0.240436 0.140642 0
0.294621 0.130053 0
0.355108 0.118593 0
0.424002 0.104417 0.00323491
0.498024 0.087602 0.014435
0.575189 0.0567636 0.034165
0.650187 0.00737011 0.0635233
0.724163 0.00604257 0.07776
0.793286 0.00724804 0.0911574
0.855222 0.00947585 0.105333
0.912993 0.0124514 0.119081
0.967865 0.0155795 0.13283
1 0.0187991 0.145586
1 0.019913 0.149203
1 0.019913 0.149203
1 0.019913 0.149203
1 0.019913 0.149203
1 0.019913 0.149203
1 0.019913 0.149203
1 0.019913 0.149203
1 0.019913 0.149203
1 0.019913 0.149203
1 0.019913 0.149203
1 0.019913 0.149203
0 0.19237 0
0 0.208408 0
0 0.226215 0
0 0.218952 0
0 0.212634 0
0 0.207568 0
0.0287785 0.200702 0
0.112398 0.192905 0
0.164034 0.187839 0
0.221241 0.179385 0
0.276753 0.171328 0
0.336019 0.162493 0
0.40441 0.152285 0
0.47744 0.140002 0
0.553613 0.124758 0.00935378
0.628763 0.105562 0.0268406
0.704204 0.0773632 0.05037
0.774472 0.0112917 0.0854505
0.837507 0.0084535 0.101747
0.89514 0.0112154 0.115175
0.953155 0.0144808 0.129458
1 0.0176394 0.142748
1 0.0199283 0.149218
1 0.0199283 0.149203
1 0.019913 0.149203
1 0.019913 0.149203
1 0.019913 0.149203
1 0.019913 0.149203
1 0.019913 0.149203
1 0.019913 0.149203
1 0.019913 0.149203
1 0.019913 0.149203
1 0.019913 0.149203
0 0.224247 0
0 0.241245 0
0 0.260426 0
0 0.256687 0
0 0.250019 0
0 0.244038 0
0 0.238666 0
0.0763561 0.231037 0
0.145312 0.223636 0
0.199115 0.218814 0
0.257984 0.211276 0
0.318395 0.203754 0
0.385977 0.195758 0
0.458091 0.18677 0
0.534096 0.176349 0
0.609384 0.16321 0.0021973
0.683223 0.146166 0.0225376
0.754421 0.123262 0.0451514
0.822171 0.0887312 0.0728618
0.884443 0.0109102 0.112123
0.941543 0.0140536 0.126024
0.996109 0.0172427 0.139742
1 0.0199435 0.149218
1 0.0199283 0.149218
1 0.0199283 0.149218
1 0.0199283 0.149218
1 0.0199283 0.149203
1 0.019913 0.149203
1 0.019913 0.149203
1 0.019913 0.149203
1 0.019913 0.149203
1 0.019913 0.149203
1 0.019913 0.149203
0 0.25861 0
0 0.277531 0
0 0.299855 0
0 0.299535 0
0 0.291234 0
0 0.284718 0
0 0.279057 0
0.0183566 0.27248 0
0.114778 0.264637 0
0.181613 0.257298 0
0.238956 0.252247 0
0.300237 0.24564 0
0.368734 0.238422 0
0.440864 0.230884 0
0.516213 0.222507 0
0.59118 0.213321 0
0.666987 0.201068 0
0.740154 0.185367 0.0171054
0.808835 0.163668 0.0429541
0.870832 0.13283 0.0712749
0.929946 0.0762188 0.105638
0.986252 0.0170901 0.137926
1 0.0199435 0.149233
1 0.0199435 0.149233
1 0.0199435 0.149218
1 0.0199283 0.149218
1 0.0199283 0.149218
1 0.0199283 0.149218
1 0.0199283 0.149203
1 0.019913 0.149203
1 0.019913 0.149203
1 0.0199283 0.149203
1 0.0199283 0.149218
0 0.297551 0
0 0.31986 0
0 0.345418 0
0 0.348699 0
0 0.340612 0
0 0.332876 0
0 0.326513 0
0 0.31986 0
0.0629587 0.311727 0
0.150179 0.30396 0
0.219547 0.296422 0
0.280659 0.291752 0
0.351476 0.284688 0
0.424033 0.277882 0
0.501396 0.269963 0
0.57847 0.261006 0
0.654108 0.250706 0
0.727428 0.238468 0
0.795987 0.223667 0.0131533
0.857618 0.205051 0.0397803
0.916213 0.177127 0.0695354
0.973037 0.130205 0.102205
1 0.0189212 0.147478
1 0.0199588 0.149248
1 0.0199435 0.149233
1 0.0199435 0.149233
1 0.0199435 0.149218
1 0.0199283 0.149218
1 0.0199283 0.149218
1 0.0199283 0.149203
1 0.0199283 0.149218
1 0.0199283 0.149218
1 0.0199283 0.149218
0 0.343282 0
0 0.368368 0
0 0.397177 0
0 0.40441 0
0 0.395071 0
0 0.386511 0
0 0.378988 0
0 0.372595 0
0 0.366537 0
0.101183 0.357534 0
0.185641 0.350286 0
0.252659 0.345403 0
0.330266 0.337942 0
0.407385 0.330938 0
0.485771 0.323201 0
0.564401 0.315114 0
0.64062 0.305898 0
0.715084 0.294972 0
0.784161 0.2822 0
0.844984 0.266316 0.00607309
0.903319 0.246586 0.0352636
0.959091 0.219776 0.0653544
1 0.178119 0.0976883
1 0.116945 0.122332
1 0.0199741 0.149248
1 0.0199588 0.149248
1 0.0199435 0.149233
1 0.0199435 0.149233
1 0.0199435 0.149218
1 0.0199283 0.149218
1 0.0199283 0.149218
1 0.0199435 0.149218
1 0.0199435 0.149218
0 0.394736 0
0 0.422782 0
0 0.45481 0
0 0.465415 0
0 0.455146 0
0 0.446815 0
0 0.438926 0
0 0.431708 0
0 0.425742 0
0 0.419303 0
0.136217 0.409918 0
0.22649 0.402106 0
0.301885 0.398199 0
0.386511 0.389914 0
0.468482 0.382223 0
0.548592 0.374456 0
0.6262 0.365972 0
0.701274 0.356786 0
0.770642 0.345968 0
0.83267 0.33312 0
0.889769 0.315969 0
0.945312 0.292622 0.0266728
0.998291 0.261875 0.0597696
1 0.221942 0.0856641
1 0.174243 0.10367
1 0.115877 0.122423
1 0.0199741 0.149248
1 0.0199588 0.149248
1 0.0199435 0.149233
1 0.0199435 0.149233
1 0.0199435 0.149218
1 0.0199435 0.149233
1 0.0199435 0.149233
0 0.451591 0
0 0.482246 0
0 0.516045 0
0 0.528511 0
0 0.518563 0
0 0.510491 0
0 0.502541 0
0 0.495232 0
0 0.489433 0
0 0.484413 0
0.0406195 0.477073 0
0.177386 0.468391 0
0.276707 0.46006 0
0.357488 0.456672 0
0.447456 0.448127 0
0.530739 0.441093 0
0.609857 0.432975 0
0.685298 0.424506 0
0.755154 0.414343 0
0.8177 0.402716 0
0.875715 0.388418 0
0.930846 0.368856 0
0.982895 0.343542 0.0104982
1 0.30663 0.0445106
1 0.263523 0.0666209
1 0.221942 0.0856641
1 0.174243 0.10367
1 0.112657 0.123674
1 0.0199741 0.149248
1 0.0199588 0.149248
1 0.0199435 0.149233
1 0.0199588 0.149248
1 0.0199588 0.149248
0 0.512261 0
0 0.54461 0
0 0.579324 0
0 0.592401 0
0 0.583322 0
0 0.574762 0
0 0.568551 0
0 0.562417 0
0 0.556924 0
0 0.552254 0
0 0.547021 0
0.100816 0.538323 0
0.230304 0.530144 0
0.334997 0.521782 0
0.41886 0.518532 0
0.509728 0.510292 0
0.590509 0.502968 0
0.667292 0.49543 0
0.737636 0.486458 0
0.801465 0.476921 0
0.858961 0.464469 0
0.913344 0.448051 0
0.966384 0.426108 0
1 0.394156 0
1 0.350515 0.0182193
1 0.307927 0.0442817
1 0.263706 0.0665904
1 0.22063 0.0856489
1 0.168048 0.105455
1 0.098909 0.127428
1 0.0199588 0.149248
1 0.021561 0.148547
1 0.111604 0.123781
0 0.575265 0
0 0.607111 0
0 0.641413 0
0 0.654765 0
0 0.64744 0
0 0.640772 0
0 0.634409 0
0 0.629435 0
0 0.623941 0
0 0.619333 0
0 0.614633 0
0 0.6103 0
0.168429 0.599741 0
0.29369 0.591241 0
0.397803 0.584192 0
0.481285 0.580591 0
0.569238 0.5729 0
0.647028 0.566094 0
0.718181 0.55845 0
0.781704 0.549813 0
0.838437 0.539971 0
0.892012 0.526558 0
0.943954 0.508339 0
0.99237 0.484321 0
1 0.44126 0
1 0.396231 0
1 0.352087 0.0164797
1 0.306889 0.04448
1 0.259297 0.069398
1 0.212512 0.089128
1 0.151812 0.111299
1 0.162097 0.108263
1 0.201038 0.0940108
0 0.637263 0
0 0.66865 0
0 0.702083 0
0 0.717327 0
0 0.710735 0
0 0.704158 0
0 0.699077 0
0 0.69369 0
0 0.688777 0
0 0.684382 0
0 0.679957 0
0 0.676112 0
0.0691844 0.668818 0
0.244373 0.659113 0
0.362234 0.651362 0
0.462348 0.644022 0
0.542168 0.641062 0
0.624109 0.633127 0
0.697444 0.6262 0
0.760815 0.618448 0
0.817792 0.609995 0
0.870497 0.598932 0
0.921492 0.584756 0
0.968978 0.565957 0
0.983017 0.529641 0
0.991608 0.488106 0
1 0.442802 0
1 0.394568 0
1 0.346288 0.0209659
1 0.296239 0.0503853
1 0.243183 0.0762798
1 0.238483 0.0784161
1 0.270802 0.0635233
0 0.698131 0
0 0.727352 0
0 0.758038 0
0 0.774502 0
0 0.768933 0
0 0.763378 0
0 0.758038 0
0 0.753414 0
0 0.749218 0
0 0.745602 0
0 0.741314 0
0 0.737392 0
0 0.734264 0
0.184512 0.722347 0
0.325277 0.713436 0
0.432853 0.706157 0
0.526085 0.699001 0
0.599115 0.696056 0
0.675288 0.688975 0
0.740108 0.681636 0
0.797375 0.674586 0
0.849928 0.666133 0
0.900084 0.654261 0
0.946288 0.639765 0
0.965896 0.610544 0
0.97409 0.572763 0
0.98291 0.53164 0
0.99202 0.486625 0
1 0.43537 0
1 0.379904 0
1 0.32462 0.0342718
1 0.310109 0.0424964
1 0.34406 0.0219272
0 0.754452 0
0 0.781353 0
0 0.808209 0
0 0.823514 0
0 0.818967 0
0 0.813947 0
0 0.810224 0
0 0.806439 0
0 0.802136 0
0 0.79852 0
0 0.795041 0
0 0.791409 0
0 0.788357 0
0.108141 0.779721 0
0.284047 0.769787 0
0.402792 0.761471 0
0.500267 0.755032 0
0.575784 0.751553 0
0.651682 0.745541 0
0.720821 0.738567 0
0.778683 0.732235 0
0.830365 0.724453 0
0.879728 0.714809 0
0.925414 0.702571 0
0.949569 0.680201 0
0.957092 0.648814 0
0.965301 0.612299 0
0.97435 0.570306 0
0.984375 0.522515 0
0.995483 0.468788 0
1 0.409842 0
1 0.384588 0
1 0.421378 0
0 0.80441 0
0 0.827573 0
0 0.851942 0
0 0.867338 0
0 0.862989 0
0 0.859205 0
0 0.855314 0
0 0.852186 0
0 0.848783 0
0 0.845411 0
0 0.842252 0
0 0.839323 0
0 0.836561 0
0 0.8336 0
0.238422 0.819547 0
0.372229 0.81146 0
0.475059 0.804364 0
0.562387 0.797467 0
0.6309 0.793866 0
0.699428 0.787991 0
0.760601 0.781353 0
0.812436 0.774289 0
0.860914 0.765637 0
0.906325 0.755291 0
0.935729 0.738643 0
0.941649 0.712627 0
0.949142 0.681895 0
0.957443 0.646067 0
0.967117 0.603723 0
0.977844 0.554879 0
0.98938 0.499352 0
0.99649 0.464485 0
0.989273 0.500252 0
0 0.848554 0
0 0.869627 0
0 0.891829 0
0 0.907088 0
0 0.90341 0
0 0.899809 0
0 0.896437 0
0 0.89337 0
0 0.890608 0
0 0.887694 0
0 0.884749 0
0 0.882399 0
0 0.880079 0
0 0.877577 0
0.184985 0.865446 0
0.336751 0.855848 0
0.44741 0.847868 0
0.537331 0.840879 0
0.616251 0.833982 0
0.678157 0.82974 0
0.740902 0.822873 0
0.794736 0.816663 0
0.84332 0.809491 0
0.888808 0.800076 0
0.923995 0.787823 0
0.929366 0.766171 0
0.935103 0.740764 0
0.942168 0.710781 0
0.951171 0.674754 0
0.961028 0.631907 0
0.971923 0.581949 0
0.981018 0.540017 0
0.973754 0.573693 0
0 0.88867 0
0 0.907835 0
0 0.928222 0
0 0.943023 0
0 0.939803 0
0 0.93669 0
0 0.93373 0
0 0.931182 0
0 0.92845 0
0 0.92578 0
0 0.923278 0
0 0.921447 0
0 0.919219 0
0 0.917098 0
0.108171 0.908248 0
0.297704 0.896468 0
0.416815 0.887312 0
0.511818 0.879393 0
0.591867 0.871992 0
0.663355 0.86479 0
0.718532 0.861021 0
0.77557 0.854826 0
0.825238 0.848432 0
0.871229 0.840421 0
0.913252 0.830335 0
0.918044 0.812284 0
0.923247 0.790768 0
0.929442 0.765362 0
0.936538 0.735134 0
0.944976 0.699001 0
0.955261 0.65658 0
0.965621 0.610971 0
0.958801 0.64123 0
0 0.925093 0
0 0.943023 0
0 0.960479 0
0 0.973419 0
0 0.970886 0
0 0.968215 0
0 0.965927 0
0 0.963638 0
0 0.961776 0
0 0.959411 0
0 0.957717 0
0 0.95584 0
0 0.954116 0
0 0.952407 0
0 0.950881 0
0.249622 0.932738 0
0.381659 0.922591 0
0.480735 0.913893 0
0.564309 0.906432 0
0.637461 0.899779 0
0.702739 0.893355 0
0.752544 0.889754 0
0.80499 0.883803 0
0.852613 0.876783 0
0.894331 0.867872 0
0.907652 0.853346 0
0.912581 0.834653 0
0.917845 0.812741 0
0.924041 0.787366 0
0.93164 0.756848 0
0.939895 0.720821 0
0.95021 0.678447 0
0.944457 0.701488 0
0 0.957717 0
0 0.973098 0
0 0.98854 0
0 0.993606 0
0 0.993606 0
0 0.993439 0
0 0.993439 0
0 0.991821 0
0 0.990143 0
0 0.98854 0
0 0.986572 0
0 0.985138 0
0 0.983597 0
0 0.982406 0
0 0.980621 0
0.191546 0.965057 0
0.341604 0.953796 0
0.446342 0.945602 0
0.533974 0.938262 0
0.608988 0.931319 0
0.676631 0.924681 0
0.73489 0.918791 0
0.781247 0.915236 0
0.831144 0.908507 0
0.874617 0.900725 0
0.89836 0.889372 0
0.902708 0.873411 0
0.907942 0.854139 0
0.913344 0.831662 0
0.919661 0.805356 0
0.927016 0.775296 0
0.935821 0.737774 0
0.931914 0.753902 0
0 0.985733 0
0 0.993606 0
0 0.993606 0
0 0.993606 0
0 0.993606 0
0 0.993606 0
0 0.993606 0
0 0.993606 0
0 0.993606 0
0 0.993606 0
0 0.994446 0
0 0.995422 0
0 0.996582 0
0 0.997726 0
0 0.999039 0
0.122438 0.990234 0
0.294118 0.979965 0
0.406378 0.973495 0
0.498604 0.965972 0
0.577829 0.95874 0
0.646937 0.952117 0
0.708278 0.94609 0
0.7626 0.940597 0
0.805997 0.936843 0
0.852323 0.930114 0
0.886824 0.921843 0
0.891905 0.908049 0
0.897917 0.891447 0
0.902953 0.871855 0
0.909117 0.847807 0
0.915846 0.820752 0
0.923766 0.788098 0
0.921431 0.799207 0
0 0.993606 0
0 0.993606 0
0 0.993606 0
0 0.993606 0
0 0.993606 0
0 0.993606 0
0 0.993606 0
0 0.993606 0
0 0.993606 0
