luts/cinecolor_fuji_f_log.cube
# Creator: CINECOLOR
# Source & Info: https://cinecolor.io/collections/camera-luts/products/fuji-f-log
TITLE "Generated by Resolve"
LUT_3D_SIZE 5
0.016083 0.0161135 0.0149996
0.355001 0.00985733 0.0259098
0.985473 0.0162051 0.137682
1 0.019913 0.149203
1 0.019913 0.149203
0 0.162921 0
0.18706 0.149462 0
0.724163 0.00604257 0.07776
1 0.019913 0.149203
1 0.019913 0.149203
0 0.512261 0
0 0.556924 0
0.590509 0.502968 0
1 0.350515 0.0182193
1 0.111604 0.123781
0 0.925093 0
0 0.961776 0
0.381659 0.922591 0
0.894331 0.867872 0
0.944457 0.701488 0
0 0.993606 0
0 0.993606 0
0 0.99733 0
0.632258 0.961318 0
0.8766 0.950622 0
0.0137789 0.0174716 0.230594
0.326848 0.00822461 0.135439
0.933684 0.0131685 0.124422
1 0.019913 0.149203
1 0.019913 0.149203
0 0.158831 0.217517
0.160983 0.160754 0.168627
0.701518 0.00650034 0.073106
1 0.019913 0.149203
1 0.019913 0.149203
0 0.535668 0.192523
0 0.582147 0.124483
0.579171 0.532876 0.0175479
1 0.384588 0
1 0.140703 0.115007
0 0.921477 0.173693
0 0.959091 0
0.352667 0.927382 0
0.882994 0.876997 0
0.939513 0.722942 0
0 0.988159 0
0 0.989761 0
0 0.99263 0
0.608164 0.961868 0
0.8766 0.950622 0
0.00660716 0.049958 0.726329
0.268727 0.00527962 0.574151
0.901335 0.00605783 0.343572
1 0.019913 0.149203
1 0.019913 0.149203
0 0.135409 0.678721
0.0238346 0.152331 0.561456
0.702373 0.0160678 0.505684
1 0.019913 0.149203
1 0.019913 0.149203
0 0.54638 0.665522
0 0.59266 0.598871
0.546242 0.546044 0.554894
1 0.415442 0.363882
1 0.158663 0.108614
0 0.898833 0.681453
0 0.931991 0.619944
0.232761 0.909346 0.589151
0.872267 0.856916 0.425772
0.934478 0.742382 0
0 0.968063 0.517937
0 0.972549 0.400504
0 0.975265 0.325841
0.613718 0.939086 0.436377
0.876799 0.950607 0
0 0.125856 1
0 0.111666 0.986908
0.881285 0 0.9187
1 0.0157931 0.287709
1 0.019913 0.149203
0 0.133761 1
0 0.112154 0.963485
0.670329 0 0.951263
1 0.0059205 0.748745
1 0.019913 0.149203
0 0.514244 0.952636
0 0.572473 0.915419
0.402411 0.537346 0.90161
0.998032 0.406058 0.890166
1 0.303563 0.540169
0 0.854383 0.898344
0 0.892164 0.881392
0 0.892149 0.868666
0.829953 0.829877 0.832288
0.945907 0.74316 0.694148
0 0.957214 0.827008
0 0.958968 0.769253
0 0.960159 0.73959
0.509987 0.932601 0.714565
0.898497 0.92874 0.617609
0 0.13312 1
0 0.121004 1
0.815961 0 1
1 0.00520333 0.825803
1 0.00978103 0.561639
0 0.150927 1
0 0.150927 1
0.41976 0.125048 1
1 0.00306706 1
1 0.00520333 0.823072
0 0.347158 0.989807
0 0.422339 0.972992
0 0.420172 0.973434
0.959823 0.345113 1
1 0.207599 0.946303
0 0.713741 0.914473
0 0.778347 0.905257
0 0.786145 0.904616
0.69752 0.761624 0.931334
0.948226 0.721569 0.902144
0 0.955108 0.891615
0 0.955108 0.891615
0 0.955108 0.891615
0 0.959854 0.907683
0.924086 0.924086 0.924086
