luts/LClassic Neo Gold 200.cube
# Creator: u/windycitychi_ (Reddit)
# Source Recipe & Download: https://www.reddit.com/r/Lumix/comments/18kx9on/gold_200_film_sim_w_realtime_lut_recipe_lut/
# Created by Adobe Lightroom plugin Export LUT (1.35.0)
# www.johnrellis.com/lightroom/exportlut.htm
# Preset: LClassic Neo Gold 200 NEW
# Color profile: /System/Library/ColorSync/Profiles/sRGB Profile.icc
LUT_3D_SIZE 8
DOMAIN_MIN 0.000000 0.000000 0.000000
DOMAIN_MAX 0.903226 0.903226 0.903226
0.000000 0.000000 0.000000
0.030426 0.000000 0.000000
0.102022 0.000000 0.000000
0.183291 0.000000 0.000000
0.280034 0.000000 0.000000
0.399176 0.000000 0.000000
0.551965 0.000000 0.000000
0.744198 0.000000 0.000000
0.007233 0.016907 0.000000
0.043549 0.017365 0.000000
0.102235 0.025238 0.000000
0.185275 0.022675 0.000000
0.281468 0.008881 0.000000
0.400275 0.000000 0.000000
0.553368 0.000000 0.000000
0.745968 0.000000 0.000000
0.000000 0.094667 0.000000
0.036469 0.094301 0.000000
0.116884 0.095674 0.000000
0.194339 0.097169 0.000000
0.284520 0.099397 0.000000
0.402869 0.098939 0.000000
0.557275 0.084077 0.000000
0.750851 0.004425 0.000000
0.000000 0.186130 0.000000
0.000000 0.185946 0.000000
0.101198 0.186587 0.000000
0.205722 0.189609 0.000000
0.303227 0.193851 0.000000
0.414893 0.202548 0.000000
0.567498 0.216190 0.000000
0.760861 0.221134 0.000000
0.000000 0.302770 0.000000
0.000000 0.302586 0.000000
0.050904 0.302373 0.000000
0.196780 0.304997 0.000000
0.323796 0.312902 0.000000
0.451575 0.325628 0.000000
0.597803 0.345037 0.000000
0.781491 0.368048 0.000000
0.000000 0.463935 0.000000
0.000000 0.463630 0.000000
0.000000 0.463081 0.000000
0.131807 0.463966 0.000000
0.319982 0.470619 0.000000
0.484657 0.485023 0.000000
0.648890 0.504967 0.000000
0.823514 0.528527 0.000000
0.000000 0.670832 0.000000
0.000000 0.670710 0.000000
0.000000 0.670466 0.000000
0.000000 0.670710 0.000000
0.238621 0.673793 0.000000
0.477455 0.683528 0.000000
0.680293 0.698909 0.000000
0.868956 0.713832 0.000000
0.000000 0.888701 0.000000
0.000000 0.888914 0.000000
0.000000 0.889433 0.000000
0.000000 0.890501 0.000000
0.000000 0.892638 0.000000
0.378210 0.897032 0.000000
0.646906 0.903380 0.000000
0.867277 0.905852 0.000000
0.007935 0.000000 0.012390
0.041596 0.000000 0.012268
0.109102 0.000000 0.020447
0.192477 0.000000 0.017212
0.288365 0.000000 0.014405
0.408911 0.000000 0.009339
0.563836 0.000000 0.000000
0.756588 0.000000 0.000000
0.008728 0.018860 0.015564
0.046723 0.019043 0.016144
0.112642 0.018494 0.016388
0.193973 0.010925 0.016693
0.289555 0.000000 0.014801
0.410010 0.000000 0.008270
0.565209 0.000000 0.000000
0.758297 0.000000 0.000000
0.001160 0.096010 0.018555
0.036713 0.096071 0.016510
0.118288 0.096284 0.015686
0.197360 0.095125 0.018891
0.290806 0.095247 0.016083
0.411902 0.088136 0.005402
0.568383 0.056886 0.000000
0.762539 0.000000 0.000000
0.000000 0.187503 0.007721
0.000000 0.187472 0.006836
0.101564 0.187839 0.003998
0.208133 0.190097 0.003265
0.306554 0.191867 0.000000
0.420722 0.199588 0.000000
0.576562 0.209751 0.000000
0.770962 0.207858 0.000000
0.000000 0.305241 0.000000
0.000000 0.304936 0.000000
0.046845 0.304723 0.000000
0.195956 0.306798 0.000000
0.325750 0.313817 0.000000
0.455146 0.324285 0.000000
0.603357 0.342596 0.000000
0.789181 0.362860 0.000000
0.000000 0.467048 0.000000
0.000000 0.466804 0.000000
0.000000 0.466316 0.000000
0.131930 0.466835 0.000000
0.320439 0.472755 0.000000
0.486366 0.486152 0.000000
0.652430 0.504417 0.000000
0.828550 0.526055 0.000000
0.000000 0.673701 0.000000
0.000000 0.673640 0.000000
0.000000 0.673518 0.000000
0.000000 0.673793 0.000000
0.233951 0.676600 0.000000
0.476661 0.685695 0.000000
0.681605 0.700008 0.000000
0.872007 0.713436 0.000000
0.000000 0.890166 0.000000
0.000000 0.890410 0.000000
0.000000 0.891051 0.000000
0.000000 0.892271 0.000000
0.000000 0.894499 0.000000
0.370062 0.898802 0.000000
0.644617 0.904784 0.000000
0.868040 0.906493 0.000000
0.029450 0.000000 0.086305
0.060578 0.000000 0.086244
0.117525 0.000000 0.088258
0.194705 0.000000 0.092561
0.292027 0.000000 0.094972
0.417884 0.000000 0.094942
0.580713 0.000000 0.087984
0.777371 0.000000 0.068849
0.007965 0.019532 0.089418
0.050263 0.018280 0.089540
0.117922 0.016846 0.089387
0.199313 0.005737 0.091981
0.297612 0.000000 0.093050
0.423743 0.000000 0.092317
0.585626 0.000000 0.082338
0.780636 0.000000 0.062013
0.008240 0.096376 0.090242
0.051759 0.096345 0.090272
0.123415 0.095857 0.090455
0.206729 0.093660 0.090852
0.306188 0.083223 0.090822
0.431769 0.050843 0.086702
0.592187 0.000000 0.074556
0.786679 0.000000 0.046174
0.000000 0.188540 0.092164
0.017884 0.189395 0.090455
0.104707 0.189944 0.083009
0.214084 0.191196 0.088930
0.318181 0.188785 0.107393
0.437232 0.189181 0.089784
0.598871 0.188724 0.067048
0.794491 0.166629 0.020203
0.000000 0.309087 0.076081
0.000000 0.309392 0.074647
0.038178 0.309331 0.074006
0.194430 0.310338 0.075776
0.336522 0.316838 0.087495
0.465217 0.319188 0.052186
0.617762 0.334539 0.024842
0.808042 0.348516 0.000000
0.000000 0.473213 0.000000
0.000000 0.473335 0.000000
0.000000 0.473274 0.000000
0.110079 0.473548 0.001251
0.316014 0.477913 0.000671
0.491279 0.488869 0.000000
0.661891 0.501946 0.000000
0.840787 0.519402 0.000000
0.000000 0.679713 0.000000
0.000000 0.679835 0.000000
0.000000 0.679927 0.000000
0.000000 0.680262 0.000000
0.224094 0.682582 0.000000
0.474556 0.690455 0.000000
0.685328 0.702510 0.000000
0.879698 0.712123 0.000000
0.000000 0.893065 0.000000
0.000000 0.893370 0.000000
0.000000 0.894163 0.000000
0.000000 0.895598 0.000000
0.000000 0.898070 0.000000
0.353857 0.902403 0.000000
0.640192 0.907713 0.000000
0.870268 0.907774 0.000000
0.028260 0.000000 0.173800
0.062531 0.000000 0.173892
0.128450 0.000000 0.174350
0.204166 0.000000 0.175692
0.296727 0.000000 0.182345
0.419776 0.000000 0.193820
0.584802 0.000000 0.201816
0.788937 0.000000 0.199222
0.001678 0.016846 0.177066
0.048859 0.015534 0.177005
0.125216 0.011048 0.176669
0.206760 0.000855 0.177371
0.301610 0.000000 0.183352
0.427070 0.000000 0.192905
0.593652 0.000000 0.198032
0.796506 0.000000 0.193423
0.000000 0.098543 0.179202
0.044739 0.097261 0.179538
0.126711 0.094881 0.180056
0.212894 0.091829 0.180209
0.312871 0.079286 0.184726
0.443977 0.019898 0.188754
0.612970 0.000000 0.188632
0.812955 0.000000 0.178408
0.000000 0.189731 0.181216
0.032471 0.189944 0.181369
0.125093 0.190494 0.181857
0.218753 0.190585 0.182132
0.328740 0.186770 0.182773
0.464485 0.171969 0.182101
0.633173 0.135805 0.177127
0.828214 0.038849 0.165682
0.000000 0.308782 0.187106
0.000000 0.310246 0.186435
0.048493 0.313603 0.182773
0.185061 0.315801 0.169802
0.344518 0.319799 0.185855
0.488746 0.315862 0.212680
0.645502 0.316808 0.184268
0.839078 0.316930 0.162356
0.000000 0.478401 0.171756
0.000000 0.479622 0.167910
0.000000 0.481483 0.158968
0.067872 0.482277 0.157565
0.308659 0.484718 0.161166
0.509117 0.494667 0.179385
0.681270 0.493385 0.144076
0.860685 0.505974 0.127169
0.000000 0.687037 0.082124
0.000000 0.687465 0.078462
0.000000 0.688258 0.071015
0.000000 0.689082 0.072663
0.194186 0.690761 0.095521
0.467811 0.697169 0.093660
0.693538 0.706172 0.086000
0.893309 0.708064 0.000000
0.000000 0.896696 0.000000
0.000000 0.896971 0.000000
0.000000 0.897765 0.000000
0.000000 0.899260 0.000000
0.000000 0.901793 0.000000
0.334813 0.906126 0.000000
0.635309 0.911101 0.000000
0.875151 0.909148 0.000000
0.000000 0.000000 0.286473
0.046479 0.000000 0.286137
0.134096 0.000000 0.285618
0.221683 0.000000 0.285679
0.316625 0.000000 0.289281
0.431281 0.000000 0.302495
0.588403 0.000000 0.326085
0.791196 0.000000 0.344610
0.000000 0.009064 0.291295
0.022309 0.006256 0.290806
0.127138 0.000000 0.289860
0.221805 0.000000 0.289250
0.319646 0.000000 0.291783
0.436591 0.000000 0.304234
0.596887 0.000000 0.326146
0.800290 0.000000 0.341283
0.000000 0.096864 0.296696
0.000000 0.094728 0.296971
0.118807 0.089723 0.296849
0.222751 0.082246 0.295964
0.326940 0.068849 0.297093
0.450202 0.013214 0.307958
0.617700 0.000000 0.324773
0.821347 0.000000 0.332586
0.000000 0.198154 0.299779
0.000000 0.197055 0.300694
0.099001 0.193851 0.302495
0.218845 0.188724 0.303929
0.337377 0.184512 0.304143
0.473732 0.168002 0.311559
0.649592 0.106813 0.318242
0.850706 0.000000 0.318608
0.000000 0.313939 0.305394
0.000000 0.314427 0.305821
0.047852 0.315557 0.306676
0.208469 0.317021 0.307805
0.345373 0.317723 0.308598
0.500359 0.312688 0.310155
0.679896 0.296635 0.310124
0.876982 0.263737 0.308110
0.000000 0.476173 0.319341
0.000000 0.477882 0.318669
0.000000 0.482094 0.316930
0.071504 0.488594 0.311528
0.291508 0.492561 0.291295
0.519066 0.498451 0.315343
0.711299 0.491524 0.355627
0.889708 0.487861 0.332372
0.000000 0.690730 0.313664
0.000000 0.692073 0.311223
0.000000 0.694942 0.304601
0.000000 0.697749 0.292454
0.172885 0.698939 0.291508
0.462257 0.702937 0.295384
0.713710 0.711696 0.312627
0.913481 0.698604 0.289128
0.000000 0.901091 0.277623
0.000000 0.901183 0.274968
0.000000 0.901427 0.269566
0.000000 0.902007 0.263462
0.000000 0.903532 0.253819
0.339849 0.907134 0.239963
0.634974 0.912322 0.225010
0.883391 0.909361 0.233585
0.000000 0.000000 0.446479
0.000000 0.000000 0.445808
0.117067 0.000000 0.444434
0.235569 0.000000 0.443275
0.348058 0.000000 0.444373
0.467628 0.000000 0.451637
0.611322 0.000000 0.472511
0.798856 0.000000 0.505058
0.000000 0.000000 0.453651
0.000000 0.000000 0.452888
0.095796 0.000000 0.451179
0.230259 0.000000 0.449226
0.348241 0.000000 0.449104
0.470924 0.000000 0.455085
0.616968 0.000000 0.474891
0.806760 0.000000 0.505516
0.000000 0.086824 0.463752
0.000000 0.082918 0.463569
0.044923 0.073426 0.462684
0.218296 0.054353 0.460792
0.348760 0.016236 0.459419
0.479164 0.000000 0.463264
0.631647 0.000000 0.480568
0.826108 0.000000 0.506126
0.000000 0.200168 0.471504
0.000000 0.197391 0.472419
0.000000 0.190646 0.474037
0.194339 0.181186 0.474556
0.347631 0.170443 0.473640
0.492805 0.154208 0.475196
0.656764 0.099428 0.488716
0.856657 0.000000 0.504936
0.000000 0.331792 0.477577
0.000000 0.330816 0.478706
0.000000 0.328069 0.481239
0.152041 0.322789 0.484657
0.339513 0.315618 0.486976
0.508782 0.310399 0.487709
0.689357 0.292943 0.495308
0.890135 0.252811 0.499886
0.000000 0.486671 0.489052
0.000000 0.487312 0.489570
0.000000 0.488808 0.490669
0.015045 0.491188 0.492317
0.320500 0.493782 0.494057
0.517174 0.495064 0.495247
0.714137 0.490700 0.498207
0.911223 0.480964 0.501183
0.000000 0.689082 0.507012
0.000000 0.690425 0.506462
0.000000 0.693660 0.505241
0.000000 0.698665 0.504082
0.209476 0.704646 0.502312
0.463874 0.707271 0.488899
0.719539 0.712184 0.502220
0.919402 0.700313 0.519249
0.000000 0.904509 0.509667
0.000000 0.904845 0.509300
0.000000 0.905455 0.508812
0.000000 0.905821 0.508293
0.000000 0.904936 0.505669
0.399786 0.904875 0.501701
0.646235 0.908873 0.492378
0.892363 0.907378 0.496559
0.000000 0.000000 0.657496
0.000000 0.000000 0.656947
0.000000 0.000000 0.655695
0.219425 0.000000 0.654231
0.369512 0.000000 0.653773
0.510796 0.000000 0.656336
0.658930 0.000000 0.665156
0.827665 0.000000 0.684047
0.000000 0.000000 0.664454
0.000000 0.000000 0.663813
0.000000 0.000000 0.662348
0.201755 0.000000 0.660426
0.363836 0.000000 0.659174
0.510521 0.000000 0.660731
0.661891 0.000000 0.668421
0.832853 0.000000 0.686122
0.000000 0.058167 0.675135
0.000000 0.050263 0.674830
0.000000 0.027344 0.673854
0.159548 0.000000 0.672175
0.350713 0.000000 0.670497
0.510094 0.000000 0.670710
0.669673 0.000000 0.676173
0.845914 0.000000 0.691096
0.000000 0.190768 0.685115
0.000000 0.187106 0.685451
0.000000 0.178653 0.685908
0.070130 0.164706 0.685756
0.331670 0.143465 0.684932
0.511009 0.107912 0.684504
0.683497 0.012238 0.687617
0.867857 0.000000 0.698329
0.000000 0.336767 0.692409
0.000000 0.334356 0.693233
0.000000 0.328527 0.694911
0.000000 0.319188 0.697017
0.306065 0.308690 0.698177
0.512261 0.297673 0.698512
0.701778 0.282383 0.699947
0.895171 0.248814 0.705592
0.000000 0.506157 0.699458
0.000000 0.505486 0.700191
0.000000 0.503777 0.701930
0.000000 0.500877 0.704311
0.271611 0.497444 0.706538
0.510369 0.493690 0.708034
0.717617 0.490455 0.708949
0.915862 0.483619 0.709499
0.000000 0.698177 0.708522
0.000000 0.698756 0.708797
0.000000 0.700160 0.709438
0.000000 0.702419 0.710353
0.194430 0.705074 0.711269
0.498024 0.707393 0.712001
0.721431 0.708614 0.712490
0.913909 0.709621 0.715877
0.000000 0.905425 0.709773
0.000000 0.905791 0.709438
0.000000 0.906554 0.708827
0.000000 0.907164 0.708675
0.000000 0.906706 0.710933
0.486885 0.904662 0.718685
0.693446 0.902068 0.720516
0.898863 0.902953 0.718593
0.000000 0.000000 0.877317
0.000000 0.000000 0.877165
0.000000 0.000000 0.876890
0.128695 0.000000 0.876677
0.359197 0.000000 0.876951
0.530602 0.000000 0.878447
0.695003 0.000000 0.882170
0.863218 0.000000 0.888884
0.000000 0.000000 0.881804
0.000000 0.000000 0.881682
0.000000 0.000000 0.881407
0.061799 0.000000 0.881132
0.345037 0.000000 0.881254
0.524804 0.000000 0.882383
0.693996 0.000000 0.885557
0.865232 0.000000 0.891356
0.000000 0.000000 0.888914
0.000000 0.000000 0.888945
0.000000 0.000000 0.889036
0.000000 0.000000 0.889250
0.313695 0.000000 0.889677
0.512840 0.000000 0.890684
0.692653 0.000000 0.892973
0.870695 0.000000 0.897063
0.000000 0.172671 0.895903
0.000000 0.168765 0.896117
0.000000 0.158755 0.896635
0.000000 0.139803 0.897581
0.272770 0.105135 0.898955
0.499214 0.020081 0.900694
0.693202 0.000000 0.902739
0.880583 0.000000 0.904936
0.000000 0.327764 0.902770
0.000000 0.325322 0.902953
0.000000 0.319738 0.903349
0.000000 0.311223 0.904173
0.233158 0.300511 0.905852
0.490455 0.286412 0.908476
0.697871 0.266178 0.911131
0.893950 0.235843 0.912108
0.000000 0.504143 0.910399
0.000000 0.502953 0.910491
0.000000 0.500542 0.910552
0.000000 0.497597 0.910338
0.203006 0.495094 0.910063
0.492134 0.493568 0.911131
0.706325 0.490547 0.913909
0.905180 0.484718 0.914916
0.000000 0.698695 0.916411
0.000000 0.698634 0.916411
0.000000 0.698482 0.916289
0.000000 0.698573 0.915801
0.144533 0.699916 0.914397
0.498573 0.704097 0.912047
0.718471 0.710628 0.910796
0.906554 0.712184 0.911803
0.000000 0.897215 0.913970
0.000000 0.897429 0.913909
0.000000 0.898039 0.913664
0.000000 0.898863 0.913146
0.000000 0.899626 0.912169
0.496040 0.899931 0.910796
0.725704 0.899748 0.909483
0.901823 0.899809 0.909117
