luts/LClassic Neo Gold 200.cube
# Creator: u/windycitychi_ (Reddit)
# Source Recipe & Download: https://www.reddit.com/r/Lumix/comments/18kx9on/gold_200_film_sim_w_realtime_lut_recipe_lut/
# Created by Adobe Lightroom plugin Export LUT (1.35.0)
# www.johnrellis.com/lightroom/exportlut.htm
# Preset: LClassic Neo Gold 200 NEW
# Color profile: /System/Library/ColorSync/Profiles/sRGB Profile.icc
LUT_3D_SIZE 5
DOMAIN_MIN 0.000000 0.000000 0.000000
DOMAIN_MAX 0.903226 0.903226 0.903226
0.000000 0.000000 0.000000
0.084901 0.000000 0.000000
0.229953 0.000000 0.000000
0.433814 0.000000 0.000000
0.744198 0.000000 0.000000
0.004120 0.073762 0.000000
0.096895 0.074464 0.000000
0.234226 0.077180 0.000000
0.436683 0.065980 0.000000
0.749233 0.000000 0.000000
0.000000 0.240024 0.000000
0.050202 0.239719 0.000000
0.260288 0.246159 0.000000
0.463722 0.263615 0.000000
0.769131 0.295018 0.000000
0.000000 0.512291 0.000000
0.000000 0.511650 0.000000
0.213077 0.513939 0.000000
0.531334 0.535576 0.000000
0.836240 0.573144 0.000000
0.000000 0.888701 0.000000
0.000000 0.889250 0.000000
0.000000 0.891386 0.000000
0.453712 0.898528 0.000000
0.867277 0.905852 0.000000
0.024872 0.000000 0.066835
0.097505 0.000000 0.068147
0.239872 0.000000 0.073610
0.453315 0.000000 0.070344
0.772122 0.000000 0.034028
0.010986 0.075441 0.070130
0.101991 0.074983 0.070130
0.249607 0.066499 0.070588
0.461189 0.000183 0.061921
0.778256 0.000000 0.014252
0.000000 0.244022 0.062409
0.055085 0.244083 0.059541
0.269871 0.248692 0.066743
0.477455 0.256016 0.044160
0.793271 0.271275 0.000000
0.000000 0.519921 0.000000
0.000000 0.519799 0.000000
0.204685 0.521141 0.000000
0.535882 0.538567 0.000000
0.848356 0.567590 0.000000
0.000000 0.892271 0.000000
0.000000 0.893065 0.000000
0.000000 0.895720 0.000000
0.438727 0.902800 0.000000
0.869474 0.907439 0.000000
0.014801 0.000000 0.225772
0.113008 0.000000 0.225528
0.256260 0.000000 0.227848
0.459236 0.000000 0.250309
0.790311 0.000000 0.270054
0.000000 0.075715 0.232425
0.103517 0.070893 0.232639
0.263859 0.057740 0.232853
0.478614 0.000000 0.249973
0.812711 0.000000 0.256443
0.000000 0.246738 0.237552
0.078828 0.247684 0.238285
0.276951 0.248844 0.239475
0.523461 0.233890 0.240299
0.852445 0.166079 0.231968
0.000000 0.528222 0.242893
0.000000 0.532250 0.235080
0.164920 0.536126 0.221103
0.563134 0.548089 0.246311
0.881895 0.545830 0.222110
0.000000 0.898711 0.115633
0.000000 0.899321 0.103883
0.000000 0.901671 0.065126
0.416846 0.908537 0.000000
0.878874 0.909514 0.000000
0.000000 0.000000 0.496376
0.053010 0.000000 0.494667
0.295628 0.000000 0.492805
0.512291 0.000000 0.502312
0.803555 0.000000 0.548425
0.000000 0.052064 0.511894
0.000000 0.034791 0.510460
0.285985 0.000000 0.506950
0.521050 0.000000 0.511772
0.823239 0.000000 0.551232
0.000000 0.264042 0.526787
0.000000 0.257603 0.529503
0.254032 0.241550 0.532647
0.545892 0.221897 0.533684
0.874968 0.106264 0.553887
0.000000 0.536980 0.543786
0.000000 0.538689 0.545006
0.161990 0.543053 0.547692
0.566186 0.546410 0.549889
0.915221 0.538018 0.555505
0.000000 0.904814 0.559716
0.000000 0.905669 0.559472
0.000000 0.906340 0.561151
0.483192 0.904570 0.557549
0.894438 0.906432 0.553765
0.000000 0.000000 0.877317
0.000000 0.000000 0.876982
0.261143 0.000000 0.876738
0.571801 0.000000 0.879149
0.863218 0.000000 0.888884
0.000000 0.000000 0.887083
0.000000 0.000000 0.887022
0.198398 0.000000 0.887144
0.561059 0.000000 0.888731
0.868925 0.000000 0.895354
0.000000 0.247898 0.899260
0.000000 0.239994 0.899840
0.000000 0.217929 0.901884
0.545647 0.171328 0.905699
0.887053 0.009613 0.908873
0.000000 0.551385 0.912261
0.000000 0.549401 0.912322
0.000000 0.546166 0.911620
0.550622 0.546838 0.911589
0.906645 0.543084 0.914641
0.000000 0.897215 0.913970
0.000000 0.897856 0.913725
0.000000 0.899260 0.912718
0.560327 0.899901 0.910430
0.901823 0.899809 0.909117
