luts/LClassic Neo Gold 200.cube
# Creator: u/windycitychi_ (Reddit)
# Source Recipe & Download: https://www.reddit.com/r/Lumix/comments/18kx9on/gold_200_film_sim_w_realtime_lut_recipe_lut/
# Created by Adobe Lightroom plugin Export LUT (1.35.0)
# www.johnrellis.com/lightroom/exportlut.htm
# Preset: LClassic Neo Gold 200 NEW
# Color profile: /System/Library/ColorSync/Profiles/sRGB Profile.icc
LUT_3D_SIZE 32
DOMAIN_MIN 0.0 0.0 0.0
DOMAIN_MAX 1.0 1.0 1.0
0.000000 0.000000 0.000000
0.003967 0.000000 0.000000
0.008820 0.000000 0.000000
0.016907 0.000000 0.000000
0.030426 0.000000 0.000000
0.047578 0.000000 0.000000
0.067079 0.000000 0.000000
0.084901 0.000000 0.000000
0.102022 0.000000 0.000000
0.120485 0.000000 0.000000
0.140536 0.000000 0.000000
0.161379 0.000000 0.000000
0.183291 0.000000 0.000000
0.206271 0.000000 0.000000
0.229953 0.000000 0.000000
0.254307 0.000000 0.000000
0.280034 0.000000 0.000000
0.307347 0.000000 0.000000
0.336065 0.000000 0.000000
0.366613 0.000000 0.000000
0.399176 0.000000 0.000000
0.433814 0.000000 0.000000
0.470649 0.000000 0.000000
0.510033 0.000000 0.000000
0.551965 0.000000 0.000000
0.596826 0.000000 0.000000
0.644129 0.000000 0.000000
0.693263 0.000000 0.000000
0.744198 0.000000 0.000000
0.796780 0.000000 0.000000
0.850553 0.000000 0.000000
0.905150 0.000000 0.000000
0.001587 0.000000 0.000000
0.006378 0.000000 0.000000
0.011292 0.000000 0.000000
0.019287 0.000000 0.000000
0.032044 0.000000 0.000000
0.049500 0.000000 0.000000
0.066773 0.000000 0.000000
0.083314 0.000000 0.000000
0.101228 0.000000 0.000000
0.120272 0.000824 0.000000
0.140261 0.001373 0.000000
0.161563 0.000122 0.000000
0.183597 0.000000 0.000000
0.206485 0.000000 0.000000
0.230137 0.000000 0.000000
0.254643 0.000000 0.000000
0.280400 0.000000 0.000000
0.307500 0.000000 0.000000
0.336217 0.000000 0.000000
0.366796 0.000000 0.000000
0.399359 0.000000 0.000000
0.433997 0.000000 0.000000
0.470893 0.000000 0.000000
0.510246 0.000000 0.000000
0.552239 0.000000 0.000000
0.597070 0.000000 0.000000
0.644373 0.000000 0.000000
0.693507 0.000000 0.000000
0.744503 0.000000 0.000000
0.797055 0.000000 0.000000
0.850889 0.000000 0.000000
0.905455 0.000000 0.000000
0.003967 0.000000 0.000000
0.008820 0.000000 0.000000
0.015320 0.000000 0.000000
0.023774 0.000000 0.000000
0.035554 0.000000 0.000000
0.049805 0.000000 0.000000
0.066011 0.001923 0.000000
0.082826 0.004395 0.000000
0.100832 0.006043 0.000000
0.119936 0.007233 0.000000
0.140444 0.006744 0.000000
0.161746 0.005463 0.000000
0.183963 0.002777 0.000000
0.207126 0.000000 0.000000
0.230625 0.000000 0.000000
0.254887 0.000000 0.000000
0.280674 0.000000 0.000000
0.307744 0.000000 0.000000
0.336584 0.000000 0.000000
0.367102 0.000000 0.000000
0.399573 0.000000 0.000000
0.434211 0.000000 0.000000
0.471107 0.000000 0.000000
0.510460 0.000000 0.000000
0.552483 0.000000 0.000000
0.597406 0.000000 0.000000
0.644709 0.000000 0.000000
0.693843 0.000000 0.000000
0.744839 0.000000 0.000000
0.797421 0.000000 0.000000
0.851225 0.000000 0.000000
0.905852 0.000000 0.000000
0.007019 0.003265 0.000000
0.012757 0.002625 0.000000
0.019348 0.002777 0.000000
0.027741 0.003632 0.000000
0.038941 0.005097 0.000000
0.051911 0.007599 0.000000
0.066133 0.010559 0.000000
0.082460 0.013184 0.000000
0.100923 0.014771 0.000000
0.120455 0.015351 0.000000
0.140902 0.014862 0.000000
0.162234 0.013123 0.000000
0.184543 0.010773 0.000000
0.207492 0.007324 0.000000
0.230991 0.003723 0.000000
0.255283 0.000000 0.000000
0.280980 0.000000 0.000000
0.308080 0.000000 0.000000
0.336797 0.000000 0.000000
0.367376 0.000000 0.000000
0.399847 0.000000 0.000000
0.434485 0.000000 0.000000
0.471443 0.000000 0.000000
0.510826 0.000000 0.000000
0.552819 0.000000 0.000000
0.597772 0.000000 0.000000
0.645167 0.000000 0.000000
0.694301 0.000000 0.000000
0.745327 0.000000 0.000000
0.797940 0.000000 0.000000
0.851774 0.000000 0.000000
0.906371 0.000000 0.000000
0.007233 0.016907 0.000000
0.013764 0.016205 0.000000
0.020630 0.015869 0.000000
0.030121 0.016175 0.000000
0.043549 0.017365 0.000000
0.056245 0.020203 0.000000
0.069673 0.022217 0.000000
0.084840 0.023987 0.000000
0.102235 0.025238 0.000000
0.121279 0.025940 0.000000
0.141512 0.025940 0.000000
0.163149 0.024475 0.000000
0.185275 0.022675 0.000000
0.207980 0.020294 0.000000
0.231479 0.017578 0.000000
0.255833 0.013367 0.000000
0.281468 0.008881 0.000000
0.308537 0.002899 0.000000
0.337194 0.000000 0.000000
0.367773 0.000000 0.000000
0.400275 0.000000 0.000000
0.434913 0.000000 0.000000
0.471809 0.000000 0.000000
0.511315 0.000000 0.000000
0.553368 0.000000 0.000000
0.598352 0.000000 0.000000
0.645747 0.000000 0.000000
0.694942 0.000000 0.000000
0.745968 0.000000 0.000000
0.798642 0.000000 0.000000
0.852506 0.000000 0.000000
0.907134 0.000000 0.000000
0.006989 0.035035 0.000000
0.014038 0.034699 0.000000
0.020905 0.034363 0.000000
0.032288 0.033997 0.000000
0.046052 0.034211 0.000000
0.060334 0.035492 0.000000
0.074800 0.036774 0.000000
0.089448 0.038087 0.000000
0.105928 0.038941 0.000000
0.123445 0.039857 0.000000
0.143374 0.039857 0.000000
0.164248 0.039948 0.000000
0.186099 0.039124 0.000000
0.208743 0.037659 0.000000
0.232212 0.035767 0.000000
0.256321 0.032929 0.000000
0.281956 0.029358 0.000000
0.309087 0.024720 0.000000
0.337682 0.019471 0.000000
0.368200 0.012757 0.000000
0.400702 0.003693 0.000000
0.435279 0.000000 0.000000
0.472358 0.000000 0.000000
0.511803 0.000000 0.000000
0.554070 0.000000 0.000000
0.599054 0.000000 0.000000
0.646509 0.000000 0.000000
0.695766 0.000000 0.000000
0.746822 0.000000 0.000000
0.799557 0.000000 0.000000
0.853452 0.000000 0.000000
0.908080 0.000000 0.000000
0.005798 0.054261 0.000000
0.012879 0.054017 0.000000
0.021332 0.053590 0.000000
0.032197 0.052949 0.000000
0.045258 0.053193 0.000000
0.061067 0.053681 0.000000
0.077943 0.054353 0.000000
0.094606 0.055360 0.000000
0.111025 0.056306 0.000000
0.127840 0.057069 0.000000
0.146334 0.057282 0.000000
0.166323 0.057496 0.000000
0.187564 0.057649 0.000000
0.209842 0.057618 0.000000
0.233097 0.056519 0.000000
0.257053 0.055787 0.000000
0.282536 0.054017 0.000000
0.309606 0.051606 0.000000
0.338109 0.048615 0.000000
0.368627 0.044068 0.000000
0.401221 0.037018 0.000000
0.435920 0.027619 0.000000
0.473060 0.016388 0.000000
0.512566 0.001678 0.000000
0.554894 0.000000 0.000000
0.600000 0.000000 0.000000
0.647486 0.000000 0.000000
0.696803 0.000000 0.000000
0.747921 0.000000 0.000000
0.800656 0.000000 0.000000
0.854551 0.000000 0.000000
0.909209 0.000000 0.000000
0.004120 0.073762 0.000000
0.011139 0.073548 0.000000
0.017792 0.073671 0.000000
0.028626 0.073182 0.000000
0.041901 0.073365 0.000000
0.059602 0.073610 0.000000
0.078218 0.073945 0.000000
0.096895 0.074464 0.000000
0.115358 0.075105 0.000000
0.133272 0.075959 0.000000
0.151064 0.076143 0.000000
0.170077 0.076417 0.000000
0.190402 0.076661 0.000000
0.211826 0.077028 0.000000
0.234226 0.077180 0.000000
0.258000 0.077150 0.000000
0.283238 0.077241 0.000000
0.310185 0.076600 0.000000
0.338720 0.075502 0.000000
0.369329 0.073396 0.000000
0.401892 0.070680 0.000000
0.436683 0.065980 0.000000
0.473854 0.059998 0.000000
0.513542 0.050080 0.000000
0.555871 0.036042 0.000000
0.601160 0.015717 0.000000
0.648737 0.000000 0.000000
0.698054 0.000000 0.000000
0.749233 0.000000 0.000000
0.801999 0.000000 0.000000
0.855955 0.000000 0.000000
0.910643 0.000000 0.000000
0.000000 0.094667 0.000000
0.003937 0.094545 0.000000
0.011475 0.094575 0.000000
0.021546 0.094209 0.000000
0.036469 0.094301 0.000000
0.056092 0.094209 0.000000
0.075776 0.094697 0.000000
0.096376 0.095186 0.000000
0.116884 0.095674 0.000000
0.136965 0.096010 0.000000
0.156100 0.096773 0.000000
0.174807 0.097169 0.000000
0.194339 0.097169 0.000000
0.214755 0.097353 0.000000
0.236423 0.097841 0.000000
0.259617 0.098604 0.000000
0.284520 0.099397 0.000000
0.311223 0.100008 0.000000
0.339666 0.100252 0.000000
0.370275 0.099916 0.000000
0.402869 0.098939 0.000000
0.437629 0.097292 0.000000
0.475013 0.094697 0.000000
0.514763 0.090455 0.000000
0.557275 0.084077 0.000000
0.602625 0.074495 0.000000
0.650202 0.060273 0.000000
0.699611 0.037201 0.000000
0.750851 0.004425 0.000000
0.803677 0.000000 0.000000
0.857633 0.000000 0.000000
0.912322 0.000000 0.000000
0.000000 0.116243 0.000000
0.000000 0.116121 0.000000
0.002502 0.116182 0.000000
0.014069 0.115999 0.000000
0.028840 0.116060 0.000000
0.049653 0.116213 0.000000
0.071443 0.116365 0.000000
0.093690 0.116670 0.000000
0.115633 0.117372 0.000000
0.137850 0.117739 0.000000
0.159060 0.118044 0.000000
0.179263 0.118654 0.000000
0.198978 0.118898 0.000000
0.219211 0.118807 0.000000
0.240116 0.119265 0.000000
0.262486 0.120363 0.000000
0.286809 0.121462 0.000000
0.313207 0.122744 0.000000
0.341375 0.123934 0.000000
0.371771 0.124758 0.000000
0.404334 0.125368 0.000000
0.439094 0.125643 0.000000
0.476539 0.125154 0.000000
0.516320 0.123842 0.000000
0.558953 0.121065 0.000000
0.604395 0.116976 0.000000
0.652064 0.110262 0.000000
0.701503 0.100465 0.000000
0.752743 0.086610 0.000000
0.805600 0.065187 0.000000
0.859556 0.030335 0.000000
0.914244 0.000000 0.000000
0.000000 0.138643 0.000000
0.000000 0.138735 0.000000
0.000000 0.138735 0.000000
0.002899 0.138582 0.000000
0.018769 0.138613 0.000000
0.040650 0.138521 0.000000
0.064515 0.138827 0.000000
0.088106 0.139101 0.000000
0.112154 0.139590 0.000000
0.135927 0.140139 0.000000
0.159335 0.140627 0.000000
0.181704 0.140810 0.000000
0.203067 0.141207 0.000000
0.224002 0.141756 0.000000
0.245029 0.142031 0.000000
0.267247 0.142885 0.000000
0.290898 0.144228 0.000000
0.316442 0.145754 0.000000
0.344152 0.147524 0.000000
0.374121 0.149325 0.000000
0.406439 0.151064 0.000000
0.441230 0.152560 0.000000
0.478523 0.153780 0.000000
0.518395 0.154513 0.000000
0.561089 0.154269 0.000000
0.606622 0.152956 0.000000
0.654261 0.150240 0.000000
0.703700 0.145724 0.000000
0.755032 0.138735 0.000000
0.807858 0.129030 0.000000
0.861875 0.115450 0.000000
0.916503 0.096040 0.000000
0.000000 0.161990 0.000000
0.000000 0.161868 0.000000
0.000000 0.161868 0.000000
0.000000 0.161868 0.000000
0.007050 0.161837 0.000000
0.029511 0.161929 0.000000
0.055665 0.162051 0.000000
0.081514 0.162295 0.000000
0.106966 0.162692 0.000000
0.132265 0.163272 0.000000
0.157290 0.163821 0.000000
0.181704 0.164309 0.000000
0.205386 0.164736 0.000000
0.228092 0.165286 0.000000
0.250614 0.166171 0.000000
0.273106 0.167056 0.000000
0.296605 0.168093 0.000000
0.321691 0.169650 0.000000
0.348791 0.171572 0.000000
0.378119 0.173983 0.000000
0.409796 0.176425 0.000000
0.444312 0.179080 0.000000
0.481483 0.181674 0.000000
0.521202 0.183871 0.000000
0.563867 0.185672 0.000000
0.609369 0.186557 0.000000
0.657008 0.186435 0.000000
0.706416 0.184939 0.000000
0.757687 0.181918 0.000000
0.810483 0.177127 0.000000
0.864408 0.170016 0.000000
0.919066 0.160220 0.000000
0.000000 0.186130 0.000000
0.000000 0.186007 0.000000
0.000000 0.186007 0.000000
0.000000 0.185977 0.000000
0.000000 0.185946 0.000000
0.015930 0.185977 0.000000
0.045624 0.185916 0.000000
0.074067 0.186252 0.000000
0.101198 0.186587 0.000000
0.127840 0.187198 0.000000
0.154238 0.187869 0.000000
0.180270 0.188754 0.000000
0.205722 0.189609 0.000000
0.230838 0.190372 0.000000
0.255070 0.191073 0.000000
0.279118 0.192569 0.000000
0.303227 0.193851 0.000000
0.328527 0.195254 0.000000
0.355200 0.197238 0.000000
0.383856 0.199741 0.000000
0.414893 0.202548 0.000000
0.448768 0.205997 0.000000
0.485481 0.209384 0.000000
0.524987 0.212894 0.000000
0.567498 0.216190 0.000000
0.612818 0.218967 0.000000
0.660243 0.220829 0.000000
0.709621 0.221592 0.000000
0.760861 0.221134 0.000000
0.813626 0.219425 0.000000
0.867460 0.216068 0.000000
0.921965 0.210910 0.000000
0.000000 0.212100 0.000000
0.000000 0.212009 0.000000
0.000000 0.211978 0.000000
0.000000 0.211917 0.000000
0.000000 0.211856 0.000000
0.000000 0.211826 0.000000
0.030304 0.211856 0.000000
0.064149 0.212009 0.000000
0.094240 0.212314 0.000000
0.122316 0.212802 0.000000
0.150149 0.213596 0.000000
0.177707 0.214572 0.000000
0.205081 0.215702 0.000000
0.231968 0.216770 0.000000
0.258488 0.217960 0.000000
0.284092 0.219089 0.000000
0.310063 0.221042 0.000000
0.336095 0.222812 0.000000
0.362982 0.224735 0.000000
0.391455 0.227237 0.000000
0.421973 0.230289 0.000000
0.455268 0.233890 0.000000
0.491218 0.237949 0.000000
0.530175 0.242344 0.000000
0.572320 0.246677 0.000000
0.617365 0.250736 0.000000
0.664393 0.254398 0.000000
0.713558 0.256962 0.000000
0.764584 0.258518 0.000000
0.817197 0.259037 0.000000
0.870939 0.258305 0.000000
0.925292 0.256107 0.000000
0.000000 0.240024 0.000000
0.000000 0.240024 0.000000
0.000000 0.239963 0.000000
0.000000 0.239811 0.000000
0.000000 0.239780 0.000000
0.000000 0.239750 0.000000
0.010285 0.239628 0.000000
0.050202 0.239719 0.000000
0.084871 0.239933 0.000000
0.116182 0.240330 0.000000
0.145388 0.241093 0.000000
0.174533 0.242069 0.000000
0.203250 0.243320 0.000000
0.231937 0.244694 0.000000
0.260288 0.246159 0.000000
0.288243 0.247776 0.000000
0.315709 0.249210 0.000000
0.343633 0.251804 0.000000
0.371649 0.254215 0.000000
0.400427 0.256779 0.000000
0.430945 0.259861 0.000000
0.463722 0.263615 0.000000
0.499062 0.267918 0.000000
0.537316 0.272770 0.000000
0.578851 0.277958 0.000000
0.623133 0.283055 0.000000
0.669612 0.287724 0.000000
0.718410 0.291752 0.000000
0.769131 0.295018 0.000000
0.821469 0.297368 0.000000
0.874968 0.298650 0.000000
0.929046 0.298589 0.000000
0.000000 0.270115 0.000000
0.000000 0.270085 0.000000
0.000000 0.270024 0.000000
0.000000 0.270024 0.000000
0.000000 0.269902 0.000000
0.000000 0.269810 0.000000
0.000000 0.269749 0.000000
0.027985 0.269718 0.000000
0.072114 0.269871 0.000000
0.107179 0.270207 0.000000
0.139284 0.270878 0.000000
0.170016 0.271702 0.000000
0.200626 0.272953 0.000000
0.230838 0.274540 0.000000
0.260777 0.276280 0.000000
0.290654 0.278202 0.000000
0.320500 0.280247 0.000000
0.349859 0.282048 0.000000
0.379889 0.285130 0.000000
0.409979 0.288365 0.000000
0.441108 0.291630 0.000000
0.473732 0.295567 0.000000
0.508812 0.299901 0.000000
0.546654 0.304997 0.000000
0.587396 0.310552 0.000000
0.630671 0.316167 0.000000
0.676356 0.321599 0.000000
0.724422 0.326787 0.000000
0.774685 0.331334 0.000000
0.826535 0.335210 0.000000
0.879606 0.338018 0.000000
0.933318 0.339727 0.000000
0.000000 0.302770 0.000000
0.000000 0.302739 0.000000
0.000000 0.302678 0.000000
0.000000 0.302647 0.000000
0.000000 0.302586 0.000000
0.000000 0.302434 0.000000
0.000000 0.302403 0.000000
0.000000 0.302251 0.000000
0.050904 0.302373 0.000000
0.094270 0.302617 0.000000
0.130770 0.303075 0.000000
0.164248 0.303899 0.000000
0.196780 0.304997 0.000000
0.228550 0.306584 0.000000
0.260441 0.308415 0.000000
0.292149 0.310613 0.000000
0.323796 0.312902 0.000000
0.355474 0.315526 0.000000
0.386725 0.317754 0.000000
0.418982 0.321508 0.000000
0.451575 0.325628 0.000000
0.485054 0.329686 0.000000
0.520226 0.334325 0.000000
0.557855 0.339483 0.000000
0.597803 0.345037 0.000000
0.640131 0.350835 0.000000
0.684962 0.356786 0.000000
0.732143 0.362493 0.000000
0.781491 0.368048 0.000000
0.832639 0.372961 0.000000
0.885130 0.377050 0.000000
0.938262 0.380133 0.000000
0.000000 0.338201 0.000000
0.000000 0.338170 0.000000
0.000000 0.338140 0.000000
0.000000 0.338018 0.000000
0.000000 0.337926 0.000000
0.000000 0.337835 0.000000
0.000000 0.337743 0.000000
0.000000 0.337621 0.000000
0.009369 0.337591 0.000000
0.072633 0.337774 0.000000
0.117372 0.338109 0.000000
0.155581 0.338750 0.000000
0.190646 0.339788 0.000000
0.224796 0.341253 0.000000
0.258579 0.343145 0.000000
0.292210 0.345373 0.000000
0.325841 0.347967 0.000000
0.359350 0.350835 0.000000
0.393286 0.353857 0.000000
0.426795 0.356695 0.000000
0.461402 0.361089 0.000000
0.496590 0.366125 0.000000
0.532708 0.371008 0.000000
0.570336 0.376318 0.000000
0.609796 0.381750 0.000000
0.651392 0.387579 0.000000
0.695247 0.393652 0.000000
0.741543 0.399756 0.000000
0.789883 0.405737 0.000000
0.840055 0.411353 0.000000
0.891630 0.416205 0.000000
0.943938 0.420417 0.000000
0.000000 0.376623 0.000000
0.000000 0.376623 0.000000
0.000000 0.376562 0.000000
0.000000 0.376440 0.000000
0.000000 0.376379 0.000000
0.000000 0.376257 0.000000
0.000000 0.376135 0.000000
0.000000 0.376013 0.000000
0.000000 0.375982 0.000000
0.023987 0.376043 0.000000
0.092317 0.376287 0.000000
0.138949 0.376837 0.000000
0.179477 0.377661 0.000000
0.217258 0.379004 0.000000
0.254124 0.380743 0.000000
0.290379 0.382940 0.000000
0.326452 0.385565 0.000000
0.362249 0.388647 0.000000
0.398199 0.391974 0.000000
0.434241 0.395636 0.000000
0.471046 0.399786 0.000000
0.507378 0.404150 0.000000
0.545068 0.409949 0.000000
0.583337 0.415320 0.000000
0.622797 0.420813 0.000000
0.664027 0.426520 0.000000
0.707149 0.432563 0.000000
0.752560 0.438727 0.000000
0.799863 0.444892 0.000000
0.848966 0.450752 0.000000
0.899382 0.456214 0.000000
0.950561 0.461006 0.000000
0.000000 0.418433 0.000000
0.000000 0.418341 0.000000
0.000000 0.418311 0.000000
0.000000 0.418250 0.000000
0.000000 0.418158 0.000000
0.000000 0.418036 0.000000
0.000000 0.417914 0.000000
0.000000 0.417792 0.000000
0.000000 0.417731 0.000000
0.000000 0.417731 0.000000
0.037690 0.417853 0.000000
0.111086 0.418250 0.000000
0.161654 0.418952 0.000000
0.205356 0.420050 0.000000
0.246281 0.421637 0.000000
0.285801 0.423713 0.000000
0.324529 0.426368 0.000000
0.363073 0.429511 0.000000
0.401587 0.432990 0.000000
0.440040 0.436957 0.000000
0.478614 0.441169 0.000000
0.517723 0.445747 0.000000
0.556237 0.450202 0.000000
0.595911 0.456275 0.000000
0.636164 0.461982 0.000000
0.677455 0.467750 0.000000
0.720272 0.473640 0.000000
0.764858 0.479713 0.000000
0.811215 0.485756 0.000000
0.859129 0.491707 0.000000
0.908293 0.497292 0.000000
0.958251 0.502373 0.000000
0.000000 0.463935 0.000000
0.000000 0.463874 0.000000
0.000000 0.463813 0.000000
0.000000 0.463722 0.000000
0.000000 0.463630 0.000000
0.000000 0.463539 0.000000
0.000000 0.463386 0.000000
0.000000 0.463233 0.000000
0.000000 0.463081 0.000000
0.000000 0.463050 0.000000
0.000000 0.463111 0.000000
0.054932 0.463386 0.000000
0.131807 0.463966 0.000000
0.186313 0.464881 0.000000
0.233616 0.466194 0.000000
0.277501 0.468147 0.000000
0.319982 0.470619 0.000000
0.361608 0.473610 0.000000
0.402777 0.477089 0.000000
0.443854 0.480903 0.000000
0.484657 0.485023 0.000000
0.525444 0.489418 0.000000
0.566705 0.494148 0.000000
0.607202 0.498756 0.000000
0.648890 0.504967 0.000000
0.690944 0.511009 0.000000
0.733822 0.516899 0.000000
0.777981 0.522728 0.000000
0.823514 0.528527 0.000000
0.870359 0.534203 0.000000
0.918273 0.539696 0.000000
0.966796 0.544762 0.000000
0.000000 0.512291 0.000000
0.000000 0.512230 0.000000
0.000000 0.512200 0.000000
0.000000 0.512108 0.000000
0.000000 0.512047 0.000000
0.000000 0.511925 0.000000
0.000000 0.511803 0.000000
0.000000 0.511650 0.000000
0.000000 0.511559 0.000000
0.000000 0.511498 0.000000
0.000000 0.511498 0.000000
0.000000 0.511681 0.000000
0.074678 0.512078 0.000000
0.154635 0.512810 0.000000
0.213077 0.513939 0.000000
0.263828 0.515557 0.000000
0.311009 0.517693 0.000000
0.356451 0.520378 0.000000
0.400793 0.523613 0.000000
0.444617 0.527306 0.000000
0.488136 0.531304 0.000000
0.531334 0.535576 0.000000
0.574395 0.540124 0.000000
0.617670 0.545037 0.000000
0.660121 0.549615 0.000000
0.703517 0.555810 0.000000
0.747097 0.561913 0.000000
0.791257 0.567620 0.000000
0.836240 0.573144 0.000000
0.882200 0.578454 0.000000
0.928862 0.583581 0.000000
0.975921 0.588220 0.000000
0.000000 0.563073 0.000000
0.000000 0.563012 0.000000
0.000000 0.562982 0.000000
0.000000 0.562890 0.000000
0.000000 0.562799 0.000000
0.000000 0.562707 0.000000
0.000000 0.562615 0.000000
0.000000 0.562493 0.000000
0.000000 0.562371 0.000000
0.000000 0.562310 0.000000
0.000000 0.562310 0.000000
0.000000 0.562432 0.000000
0.000000 0.562737 0.000000
0.096925 0.563287 0.000000
0.180117 0.564202 0.000000
0.242222 0.565515 0.000000
0.296239 0.567346 0.000000
0.346685 0.569726 0.000000
0.394934 0.572656 0.000000
0.442115 0.576074 0.000000
0.488502 0.579980 0.000000
0.534417 0.584131 0.000000
0.579889 0.588525 0.000000
0.625055 0.593133 0.000000
0.670283 0.597925 0.000000
0.714321 0.602350 0.000000
0.759091 0.608087 0.000000
0.803769 0.613977 0.000000
0.848661 0.619226 0.000000
0.893889 0.624201 0.000000
0.939513 0.628748 0.000000
0.985199 0.632776 0.000000
0.000000 0.616083 0.000000
0.000000 0.616052 0.000000
0.000000 0.616022 0.000000
0.000000 0.615961 0.000000
0.000000 0.615900 0.000000
0.000000 0.615808 0.000000
0.000000 0.615717 0.000000
0.000000 0.615625 0.000000
0.000000 0.615503 0.000000
0.000000 0.615473 0.000000
0.000000 0.615442 0.000000
0.000000 0.615534 0.000000
0.000000 0.615747 0.000000
0.000000 0.616175 0.000000
0.122560 0.616938 0.000000
0.208164 0.618006 0.000000
0.273411 0.619562 0.000000
0.330816 0.621607 0.000000
0.384253 0.624140 0.000000
0.435492 0.627253 0.000000
0.485237 0.630823 0.000000
0.534051 0.634791 0.000000
0.582269 0.638941 0.000000
0.629786 0.643275 0.000000
0.676875 0.647608 0.000000
0.723537 0.652155 0.000000
0.768948 0.655970 0.000000
0.814633 0.661097 0.000000
0.859831 0.666377 0.000000
0.904784 0.670893 0.000000
0.949554 0.674861 0.000000
0.994018 0.678096 0.000000
0.000000 0.670832 0.000000
0.000000 0.670832 0.000000
0.000000 0.670802 0.000000
0.000000 0.670802 0.000000
0.000000 0.670710 0.000000
0.000000 0.670649 0.000000
0.000000 0.670588 0.000000
0.000000 0.670527 0.000000
0.000000 0.670466 0.000000
0.000000 0.670436 0.000000
0.000000 0.670436 0.000000
0.000000 0.670497 0.000000
0.000000 0.670710 0.000000
0.000000 0.671077 0.000000
0.000000 0.671626 0.000000
0.151217 0.672511 0.000000
0.238621 0.673793 0.000000
0.306981 0.675502 0.000000
0.367315 0.677699 0.000000
0.423590 0.680354 0.000000
0.477455 0.683528 0.000000
0.529686 0.687098 0.000000
0.580774 0.690944 0.000000
0.630976 0.694911 0.000000
0.680293 0.698909 0.000000
0.728908 0.702815 0.000000
0.776822 0.706661 0.000000
0.822965 0.709773 0.000000
0.868956 0.713832 0.000000
0.913970 0.718135 0.000000
0.958251 0.721401 0.000000
1.000000 0.723720 0.000000
0.000000 0.726589 0.000000
0.000000 0.726558 0.000000
0.000000 0.726558 0.000000
0.000000 0.726558 0.000000
0.000000 0.726528 0.000000
0.000000 0.726497 0.000000
0.000000 0.726467 0.000000
0.000000 0.726467 0.000000
0.000000 0.726436 0.000000
0.000000 0.726436 0.000000
0.000000 0.726467 0.000000
0.000000 0.726528 0.000000
0.000000 0.726741 0.000000
0.000000 0.727047 0.000000
0.000000 0.727535 0.000000
0.000000 0.728267 0.000000
0.181796 0.729335 0.000000
0.270817 0.730709 0.000000
0.341802 0.732540 0.000000
0.405005 0.734829 0.000000
0.463905 0.737514 0.000000
0.520134 0.740627 0.000000
0.574548 0.744015 0.000000
0.627619 0.747555 0.000000
0.679591 0.751034 0.000000
0.730434 0.754391 0.000000
0.780117 0.757534 0.000000
0.828641 0.760342 0.000000
0.875090 0.762325 0.000000
0.920684 0.765011 0.000000
0.964752 0.767636 0.000000
1.000000 0.769100 0.000000
0.000000 0.782315 0.000000
0.000000 0.782345 0.000000
0.000000 0.782315 0.000000
0.000000 0.782315 0.000000
0.000000 0.782315 0.000000
0.000000 0.782345 0.000000
0.000000 0.782345 0.000000
0.000000 0.782376 0.000000
0.000000 0.782437 0.000000
0.000000 0.782498 0.000000
0.000000 0.782559 0.000000
0.000000 0.782712 0.000000
0.000000 0.782925 0.000000
0.000000 0.783230 0.000000
0.000000 0.783688 0.000000
0.000000 0.784298 0.000000
0.056153 0.785183 0.000000
0.214145 0.786343 0.000000
0.304265 0.787839 0.000000
0.377600 0.789700 0.000000
0.443336 0.791897 0.000000
0.504479 0.794491 0.000000
0.562860 0.797330 0.000000
0.619257 0.800290 0.000000
0.673976 0.803220 0.000000
0.727260 0.805997 0.000000
0.779019 0.808408 0.000000
0.829221 0.810330 0.000000
0.877745 0.811734 0.000000
0.923827 0.812222 0.000000
0.968322 0.813016 0.000000
1.000000 0.813748 0.000000
0.000000 0.836851 0.000000
0.000000 0.836851 0.000000
0.000000 0.836881 0.000000
0.000000 0.836912 0.000000
0.000000 0.836942 0.000000
0.000000 0.837003 0.000000
0.000000 0.837064 0.000000
0.000000 0.837156 0.000000
0.000000 0.837247 0.000000
